milangroshev/niryo-one-digital-twin/digital-twin-service/niryo-one-stack/niryo-one-interface/scripts/milan-4-cubes-10.csv
timestamp,event,hw_timestamp,cmd_speed(s),joint_1,joint_2,joint_3,joint_4,joint_5,joint_6,gripper_state
1626880798567128064,pose_received,1626880798562721967,0.15,0.279,0.000,0.000,0.015,-0.012,0.000,1
1626880798715054080,pose_received,1626880798712310075,0.15,0.349,0.000,0.000,0.015,-0.012,0.000,1
1626880798864686848,pose_received,1626880798862468957,0.15,0.419,0.000,0.000,0.015,-0.012,0.000,1
1626880799014916864,pose_received,1626880799012465000,0.15,0.489,0.000,0.000,0.015,-0.012,0.000,1
1626880799164807936,pose_received,1626880799162467002,0.15,0.559,0.000,0.000,0.015,-0.012,0.000,1
1626880799314652928,pose_received,1626880799312513113,0.15,0.629,0.000,0.000,0.015,-0.012,0.000,1
1626880799464651008,pose_received,1626880799462452888,0.15,0.699,0.000,0.000,0.015,-0.012,0.000,1
1626880799615386880,pose_received,1626880799612445116,0.15,0.769,0.000,0.000,0.015,-0.012,0.000,1
1626880799764617984,pose_received,1626880799762412071,0.15,0.839,0.000,0.000,0.015,-0.012,0.000,1
1626880799914278144,pose_received,1626880799912406921,0.15,0.909,0.000,0.000,0.015,-0.012,0.000,1
1626880800064436992,pose_received,1626880800062372922,0.15,0.979,0.000,0.000,0.015,-0.012,0.000,1
1626880800215462912,pose_received,1626880800212670087,0.15,1.049,0.000,0.000,0.015,-0.012,0.000,1
1626880800364662784,pose_received,1626880800362418889,0.15,1.119,0.000,0.000,0.015,-0.012,0.000,1
1626880800518402048,pose_received,1626880800514231920,0.15,1.189,0.000,0.000,0.015,-0.012,0.000,1
1626880800664477952,pose_received,1626880800662563085,0.15,1.259,0.000,0.000,0.015,-0.012,0.000,1
1626880800814636032,pose_received,1626880800812690019,0.15,1.329,0.000,0.000,0.015,-0.012,0.000,1
1626880800964279808,pose_received,1626880800962481021,0.15,1.399,0.000,0.000,0.015,-0.012,0.000,1
1626880801113190912,pose_received,1626880801112180948,0.15,1.469,0.000,0.000,0.015,-0.012,0.000,1
1626880801263138048,pose_received,1626880801262084960,0.15,1.539,0.000,0.000,0.015,-0.012,0.000,1
1626880801414258944,pose_received,1626880801412395954,0.15,1.609,0.000,0.000,0.015,-0.012,0.000,1
1626880801564727040,pose_received,1626880801562549114,0.15,1.679,0.000,0.000,0.015,-0.012,0.000,1
1626880801714618880,pose_received,1626880801712840080,0.15,1.749,0.000,0.000,0.015,-0.012,0.000,1
1626880801864527104,pose_received,1626880801862721920,0.15,1.819,0.000,0.000,0.015,-0.012,0.000,1
1626880802014355968,pose_received,1626880802012468099,0.15,1.889,0.000,0.000,0.015,-0.012,0.000,1
1626880802164401152,pose_received,1626880802162604093,0.15,1.896,0.000,-0.070,0.015,-0.012,0.000,1
1626880802314467840,pose_received,1626880802312491893,0.15,1.896,0.000,-0.140,0.015,-0.012,0.000,1
1626880802464802048,pose_received,1626880802462723016,0.15,1.896,0.000,-0.210,0.015,-0.012,0.000,1
1626880802615659008,pose_received,1626880802612761974,0.15,1.896,0.000,-0.280,0.015,-0.012,0.000,1
1626880802764410880,pose_received,1626880802762562036,0.15,1.896,0.000,-0.350,0.015,-0.012,0.000,1
1626880802914295040,pose_received,1626880802912405014,0.15,1.896,0.000,-0.420,0.015,-0.012,0.000,1
1626880803065197056,pose_received,1626880803062484979,0.15,1.896,0.000,-0.490,0.015,-0.012,0.000,1
1626880803215329024,pose_received,1626880803212447881,0.15,1.966,0.000,-0.490,0.015,-0.012,0.000,1
1626880803364881152,pose_received,1626880803362387895,0.15,2.036,0.000,-0.490,0.015,-0.012,0.000,1
1626880803514796032,pose_received,1626880803512271881,0.15,2.106,0.000,-0.490,0.015,-0.012,0.000,1
1626880803664593920,pose_received,1626880803662317037,0.15,2.176,0.000,-0.490,0.015,-0.012,0.000,1
1626880803964343040,pose_received,1626880803962466001,0.15,2.176,0.000,-0.560,0.015,-0.012,0.000,1
1626880804115046144,pose_received,1626880804112426042,0.15,2.176,0.000,-0.630,0.015,-0.012,0.000,1
1626880804264781056,pose_received,1626880804262475967,0.15,2.176,0.000,-0.700,0.015,-0.012,0.000,1
1626880805014900992,pose_received,1626880805012255907,0.15,2.176,0.000,-0.770,0.015,-0.012,0.000,1
1626880805164489984,pose_received,1626880805162436962,0.15,2.176,0.000,-0.840,0.015,-0.012,0.000,1
1626880805315254016,pose_received,1626880805312444925,0.15,2.106,0.000,-0.840,0.015,-0.012,0.000,1
1626880805914836992,pose_received,1626880805912389993,0.15,2.106,-0.070,-0.840,0.015,-0.012,0.000,1
1626880806065128960,pose_received,1626880806062789916,0.15,2.106,-0.140,-0.840,0.015,-0.012,0.000,1
1626880806364893952,pose_received,1626880806362411975,0.15,2.106,-0.140,-0.770,0.015,-0.012,0.000,1
1626880806514429952,pose_received,1626880806512478113,0.15,2.106,-0.151,-0.770,0.015,-0.012,0.000,1
1626880806664436992,pose_received,1626880806662451028,0.15,2.106,-0.221,-0.770,0.015,-0.012,0.000,1
1626880806814754048,pose_received,1626880806812500000,0.15,2.106,-0.221,-0.700,0.015,-0.012,0.000,1
1626880807114301952,pose_received,1626880807112322092,0.15,2.106,-0.291,-0.700,0.015,-0.012,0.000,1
1626880807415016960,pose_received,1626880807412679910,0.15,2.106,-0.291,-0.770,0.048,-0.012,0.000,1
1626880807564857088,pose_received,1626880807562472105,0.15,2.106,-0.291,-0.840,0.048,-0.012,0.000,1
1626880808013554176,pose_received,1626880808012140035,0.15,2.106,-0.361,-0.840,0.048,-0.012,0.000,1
1626880808315249920,pose_received,1626880808312858104,0.15,2.106,-0.361,-0.770,0.048,-0.012,0.000,1
1626880808614553856,pose_received,1626880808612436056,0.15,2.106,-0.431,-0.770,0.048,-0.012,0.000,1
1626880808764743168,pose_received,1626880808762304067,0.15,2.106,-0.501,-0.770,0.048,-0.012,0.000,1
1626880809364948992,pose_received,1626880809362413883,0.15,2.036,-0.501,-0.770,0.048,-0.012,0.000,1
1626880810114337024,pose_received,1626880810112306118,0.15,2.036,-0.501,-0.700,0.048,-0.012,0.000,1
1626880810264832000,pose_received,1626880810262422084,0.15,2.036,-0.501,-0.681,0.048,-0.012,0.000,1
1626880810414941184,pose_received,1626880810412405014,0.15,2.036,-0.501,-0.662,0.048,-0.012,0.000,1
1626880811614331904,pose_received,1626880811612164974,0.15,2.036,-0.571,-0.662,0.048,-0.012,0.000,1
1626880812214433024,pose_received,1626880812212352037,0.15,2.036,-0.571,-0.592,0.048,-0.012,0.000,1
1626880812664339968,pose_received,1626880812662316083,0.15,2.036,-0.595,-0.592,0.048,-0.012,0.000,1
1626880813415069184,pose_received,1626880813412362098,0.15,2.036,-0.665,-0.592,0.048,-0.012,0.000,1
1626880815664918016,pose_received,1626880815662419080,0.15,2.036,-0.595,-0.592,0.048,-0.012,0.000,2
1626880815814688000,pose_received,1626880815812441110,0.15,2.036,-0.525,-0.592,0.048,-0.012,0.000,2
1626880815964615936,pose_received,1626880815962426900,0.15,2.036,-0.455,-0.592,0.048,-0.012,0.000,2
1626880816114789120,pose_received,1626880816112411022,0.15,2.036,-0.385,-0.592,0.048,-0.012,0.000,2
1626880816264806144,pose_received,1626880816262315034,0.15,2.036,-0.315,-0.592,0.048,-0.012,0.000,2
1626880816416016128,pose_received,1626880816412548065,0.15,2.036,-0.245,-0.592,0.048,-0.012,0.000,2
1626880816565644032,pose_received,1626880816563368082,0.15,2.036,-0.175,-0.592,0.048,-0.012,0.000,2
1626880816715131904,pose_received,1626880816712412118,0.15,2.036,-0.105,-0.592,0.048,-0.012,0.000,2
1626880816864537856,pose_received,1626880816862441062,0.15,2.036,-0.035,-0.592,0.048,-0.012,0.000,2
1626880817018076928,pose_received,1626880817012445926,0.15,2.036,0.035,-0.592,0.048,-0.012,0.000,2
1626880817165232896,pose_received,1626880817162513017,0.15,2.036,0.105,-0.592,0.048,-0.012,0.000,2
1626880817318960896,pose_received,1626880817315404891,0.15,2.036,0.105,-0.522,0.048,-0.012,0.000,2
1626880817465285120,pose_received,1626880817462436914,0.15,2.036,0.105,-0.452,0.048,-0.012,0.000,2
1626880817619326976,pose_received,1626880817612426042,0.15,2.036,0.105,-0.382,0.048,-0.012,0.000,2
1626880817764719872,pose_received,1626880817762435913,0.15,2.036,0.105,-0.312,0.048,-0.012,0.000,2
1626880817915749120,pose_received,1626880817912415027,0.15,2.036,0.105,-0.242,0.048,-0.012,0.000,2
1626880818064873984,pose_received,1626880818062488079,0.15,2.036,0.105,-0.172,0.048,-0.012,0.000,2
1626880818215696128,pose_received,1626880818212794065,0.15,2.036,0.105,-0.102,0.048,-0.012,0.000,2
1626880818365165824,pose_received,1626880818362510919,0.15,2.036,0.105,-0.032,0.048,-0.012,0.000,2
1626880818513245184,pose_received,1626880818512166023,0.15,2.036,0.105,0.038,0.048,-0.012,0.000,2
1626880818813658880,pose_received,1626880818812036037,0.15,1.966,0.105,0.038,0.048,-0.012,0.000,2
1626880818963634944,pose_received,1626880818962038040,0.15,1.896,0.105,0.038,0.048,-0.012,0.000,2
1626880819113376000,pose_received,1626880819112023115,0.15,1.826,0.105,0.038,0.048,-0.012,0.000,2
1626880819264684032,pose_received,1626880819262201070,0.15,1.756,0.105,0.038,0.048,-0.012,0.000,2
1626880819415170048,pose_received,1626880819412398099,0.15,1.686,0.105,0.038,0.048,-0.012,0.000,2
1626880819564928000,pose_received,1626880819562458038,0.15,1.616,0.105,0.038,0.048,-0.012,0.000,2
1626880819714857216,pose_received,1626880819712461948,0.15,1.546,0.105,0.038,0.048,-0.012,0.000,2
1626880819865120768,pose_received,1626880819862456083,0.15,1.476,0.105,0.038,0.048,-0.012,0.000,2
1626880820015641088,pose_received,1626880820012788057,0.15,1.406,0.105,0.038,0.048,-0.012,0.000,2
1626880820165158912,pose_received,1626880820162652015,0.15,1.336,0.105,0.038,0.048,-0.012,0.000,2
1626880820314868992,pose_received,1626880820312509059,0.15,1.266,0.105,0.038,0.048,-0.012,0.000,2
1626880820464657920,pose_received,1626880820462315082,0.15,1.196,0.105,0.038,0.048,-0.012,0.000,2
1626880820615128064,pose_received,1626880820612396001,0.15,1.126,0.105,0.038,0.048,-0.012,0.000,2
1626880820764801024,pose_received,1626880820762434005,0.15,1.056,0.105,0.038,0.048,-0.012,0.000,2
1626880820915550976,pose_received,1626880820912426948,0.15,0.986,0.105,0.038,0.048,-0.012,0.000,2
1626880821064603136,pose_received,1626880821062331914,0.15,0.916,0.105,0.038,0.048,-0.012,0.000,2
1626880821214246144,pose_received,1626880821212428092,0.15,0.846,0.105,0.038,0.048,-0.012,0.000,2
1626880821366827008,pose_received,1626880821364624977,0.15,0.776,0.105,0.038,0.048,-0.012,0.000,2
1626880821514434048,pose_received,1626880821512568950,0.15,0.706,0.105,0.038,0.048,-0.012,0.000,2
1626880821665165056,pose_received,1626880821662348985,0.15,0.636,0.105,0.038,0.048,-0.012,0.000,2
1626880821814757120,pose_received,1626880821812429904,0.15,0.566,0.105,0.038,0.048,-0.012,0.000,2
1626880821970588928,pose_received,1626880821966938972,0.15,0.496,0.105,0.038,0.048,-0.012,0.000,2
1626880822115320064,pose_received,1626880822112420082,0.15,0.426,0.105,0.038,0.048,-0.012,0.000,2
1626880822264297984,pose_received,1626880822262476921,0.15,0.356,0.105,0.038,0.048,-0.012,0.000,2
1626880822414486016,pose_received,1626880822412179946,0.15,0.286,0.105,0.038,0.048,-0.012,0.000,2
1626880822564694016,pose_received,1626880822562325000,0.15,0.216,0.105,0.038,0.048,-0.012,0.000,2
1626880822714618880,pose_received,1626880822712496995,0.15,0.146,0.105,0.038,0.048,-0.012,0.000,2
1626880822865369088,pose_received,1626880822862453937,0.15,0.076,0.105,0.038,0.048,-0.012,0.000,2
1626880823014964992,pose_received,1626880823012463092,0.15,0.006,0.105,0.038,0.048,-0.012,0.000,2
1626880823164869120,pose_received,1626880823162462949,0.15,-0.064,0.105,0.038,0.048,-0.012,0.000,2
1626880823317086976,pose_received,1626880823312501907,0.15,-0.134,0.105,0.038,0.048,-0.012,0.000,2
1626880823464665856,pose_received,1626880823462522983,0.15,-0.204,0.105,0.038,0.048,-0.012,0.000,2
1626880823614851072,pose_received,1626880823612370967,0.15,-0.274,0.105,0.038,0.048,-0.012,0.000,2
1626880823764643840,pose_received,1626880823762434005,0.15,-0.344,0.105,0.038,0.048,-0.012,0.000,2
1626880823914525952,pose_received,1626880823912396907,0.15,-0.414,0.105,0.038,0.048,-0.012,0.000,2
1626880824064673792,pose_received,1626880824062388896,0.15,-0.484,0.105,0.038,0.048,-0.012,0.000,2
1626880824214648064,pose_received,1626880824212409019,0.15,-0.554,0.105,0.038,0.048,-0.012,0.000,2
1626880824364738048,pose_received,1626880824362412929,0.15,-0.624,0.105,0.038,0.048,-0.012,0.000,2
1626880824517838080,pose_received,1626880824512469053,0.15,-0.694,0.105,0.038,0.048,-0.012,0.000,2
1626880824664690944,pose_received,1626880824662477970,0.15,-0.764,0.105,0.038,0.048,-0.012,0.000,2
1626880824814817024,pose_received,1626880824812422990,0.15,-0.834,0.105,0.038,0.048,-0.012,0.000,2
1626880824964911104,pose_received,1626880824962420940,0.15,-0.904,0.105,0.038,0.048,-0.012,0.000,2
1626880825114617088,pose_received,1626880825112428903,0.15,-0.974,0.105,0.038,0.048,-0.012,0.000,2
1626880825264548096,pose_received,1626880825262356996,0.15,-1.044,0.105,0.038,0.048,-0.012,0.000,2
1626880825414707968,pose_received,1626880825412429094,0.15,-1.114,0.105,0.038,0.048,-0.012,0.000,2
1626880825564737024,pose_received,1626880825562448024,0.15,-1.184,0.105,0.038,0.048,-0.012,0.000,2
1626880825714388992,pose_received,1626880825712431907,0.15,-1.254,0.105,0.038,0.048,-0.012,0.000,2
1626880825863369984,pose_received,1626880825862178087,0.15,-1.324,0.105,0.038,0.048,-0.012,0.000,2
1626880826014888960,pose_received,1626880826012674093,0.15,-1.394,0.105,0.038,0.048,-0.012,0.000,2
1626880826164700928,pose_received,1626880826162365913,0.15,-1.464,0.105,0.038,0.048,-0.012,0.000,2
1626880826315340032,pose_received,1626880826312463998,0.15,-1.534,0.105,0.038,0.048,-0.012,0.000,2
1626880826464760064,pose_received,1626880826462341070,0.15,-1.604,0.105,0.038,0.048,-0.012,0.000,2
1626880826614373888,pose_received,1626880826612447023,0.15,-1.604,0.105,-0.032,0.048,-0.012,0.000,2
1626880826764833024,pose_received,1626880826762649059,0.15,-1.604,0.105,-0.102,0.048,-0.012,0.000,2
1626880826914465792,pose_received,1626880826912436962,0.15,-1.604,0.105,-0.172,0.048,-0.012,0.000,2
1626880827064512000,pose_received,1626880827062402963,0.15,-1.604,0.105,-0.242,0.048,-0.012,0.000,2
1626880827214603776,pose_received,1626880827212377071,0.15,-1.604,0.105,-0.312,0.048,-0.012,0.000,2
1626880827365570048,pose_received,1626880827362279891,0.15,-1.604,0.105,-0.382,0.048,-0.012,0.000,2
1626880827514831104,pose_received,1626880827512429952,0.15,-1.604,0.105,-0.452,0.048,-0.012,0.000,2
1626880827664585984,pose_received,1626880827662417888,0.15,-1.604,0.105,-0.522,0.048,-0.012,0.000,2
1626880827814883072,pose_received,1626880827812642097,0.15,-1.604,0.105,-0.592,0.048,-0.012,0.000,2
1626880827964572928,pose_received,1626880827962524890,0.15,-1.604,0.105,-0.662,0.048,-0.012,0.000,2
1626880828114928896,pose_received,1626880828112612962,0.15,-1.604,0.105,-0.732,0.048,-0.012,0.000,2
1626880828264465152,pose_received,1626880828262332916,0.15,-1.604,0.105,-0.802,0.048,-0.012,0.000,2
1626880828414656000,pose_received,1626880828412465095,0.15,-1.604,0.105,-0.872,0.048,-0.012,0.000,2
1626880828565186048,pose_received,1626880828562604904,0.15,-1.604,0.035,-0.872,0.048,-0.012,0.000,2
1626880828715229952,pose_received,1626880828712467908,0.15,-1.604,-0.035,-0.872,0.048,-0.012,0.000,2
1626880828864692992,pose_received,1626880828862464904,0.15,-1.604,-0.105,-0.872,0.048,-0.012,0.000,2
1626880829015454976,pose_received,1626880829012613058,0.15,-1.604,-0.175,-0.872,0.048,-0.012,0.000,2
1626880829163590912,pose_received,1626880829162225008,0.15,-1.604,-0.245,-0.872,0.048,-0.012,0.000,2
1626880829313293056,pose_received,1626880829312019109,0.15,-1.604,-0.245,-0.802,0.048,-0.012,0.000,2
1626880829464428032,pose_received,1626880829462271928,0.15,-1.604,-0.315,-0.802,0.048,-0.012,0.000,2
1626880829614699008,pose_received,1626880829612402915,0.15,-1.604,-0.385,-0.802,0.048,-0.012,0.000,2
1626880830214642944,pose_received,1626880830212388992,0.15,-1.604,-0.385,-0.732,0.048,-0.012,0.000,2
1626880830364502784,pose_received,1626880830362536907,0.15,-1.604,-0.385,-0.662,0.048,-0.012,0.000,2
1626880830664668160,pose_received,1626880830662424087,0.15,-1.604,-0.455,-0.662,0.048,-0.012,0.000,2
1626880831114451968,pose_received,1626880831112346887,0.15,-1.604,-0.525,-0.662,0.048,-0.012,0.000,2
1626880831264102912,pose_received,1626880831262341976,0.15,-1.604,-0.525,-0.592,0.048,-0.012,0.000,2
1626880831565069056,pose_received,1626880831562381982,0.15,-1.604,-0.595,-0.592,0.048,-0.012,0.000,2
1626880832164734976,pose_received,1626880832162323951,0.15,-1.604,-0.595,-0.522,0.048,-0.012,0.000,2
1626880832465213184,pose_received,1626880832462418079,0.15,-1.604,-0.665,-0.522,0.048,-0.012,0.000,2
1626880836213669888,pose_received,1626880836212102890,0.15,-1.604,-0.595,-0.522,0.048,-0.012,0.000,1
1626880836363676160,pose_received,1626880836362160921,0.15,-1.604,-0.525,-0.522,0.048,-0.012,0.000,1
1626880836514210048,pose_received,1626880836512408971,0.15,-1.604,-0.455,-0.522,0.048,-0.012,0.000,1
1626880836664627200,pose_received,1626880836662425994,0.15,-1.604,-0.385,-0.522,0.048,-0.012,0.000,1
1626880836814610944,pose_received,1626880836812418937,0.15,-1.604,-0.315,-0.522,0.048,-0.012,0.000,1
1626880836964875008,pose_received,1626880836962387084,0.15,-1.604,-0.245,-0.522,0.048,-0.012,0.000,1
1626880837114953984,pose_received,1626880837112396001,0.15,-1.604,-0.175,-0.522,0.048,-0.012,0.000,1
1626880837264715008,pose_received,1626880837262345075,0.15,-1.604,-0.105,-0.522,0.048,-0.012,0.000,1
1626880837417630976,pose_received,1626880837412935972,0.15,-1.604,-0.035,-0.522,0.048,-0.012,0.000,1
1626880837565208832,pose_received,1626880837562930107,0.15,-1.604,-0.035,-0.452,0.048,-0.012,0.000,1
1626880837715567104,pose_received,1626880837712420940,0.15,-1.604,-0.035,-0.382,0.048,-0.012,0.000,1
1626880837864556032,pose_received,1626880837862436056,0.15,-1.604,-0.035,-0.312,0.048,-0.012,0.000,1
1626880838016498176,pose_received,1626880838012510061,0.15,-1.604,-0.035,-0.242,0.048,-0.012,0.000,1
1626880838164756992,pose_received,1626880838162600040,0.15,-1.604,-0.035,-0.172,0.048,-0.012,0.000,1
1626880838315290880,pose_received,1626880838312356948,0.15,-1.604,-0.035,-0.102,0.048,-0.012,0.000,1
1626880838464067072,pose_received,1626880838462341070,0.15,-1.604,-0.035,-0.032,0.048,-0.012,0.000,1
1626880838615447040,pose_received,1626880838612612009,0.15,-1.604,-0.035,0.038,0.048,-0.012,0.000,1
1626880838764713984,pose_received,1626880838762447118,0.15,-1.534,-0.035,0.038,0.048,-0.012,0.000,1
1626880838914681856,pose_received,1626880838912375926,0.15,-1.464,-0.035,0.038,0.048,-0.012,0.000,1
1626880839065519104,pose_received,1626880839063162088,0.15,-1.394,-0.035,0.038,0.048,-0.012,0.000,1
1626880839214648064,pose_received,1626880839212666034,0.15,-1.324,-0.035,0.038,0.048,-0.012,0.000,1
1626880839364548864,pose_received,1626880839362457036,0.15,-1.254,-0.035,0.038,0.048,-0.012,0.000,1
1626880839514374912,pose_received,1626880839512396097,0.15,-1.184,-0.035,0.038,0.048,-0.012,0.000,1
1626880839664514048,pose_received,1626880839662419080,0.15,-1.114,-0.035,0.038,0.048,-0.012,0.000,1
1626880839813342208,pose_received,1626880839812182903,0.15,-1.044,-0.035,0.038,0.048,-0.012,0.000,1
1626880839964773888,pose_received,1626880839962426900,0.15,-0.974,-0.035,0.038,0.048,-0.012,0.000,1
1626880840114676992,pose_received,1626880840112394094,0.15,-0.904,-0.035,0.038,0.048,-0.012,0.000,1
1626880840264771072,pose_received,1626880840262384891,0.15,-0.834,-0.035,0.038,0.048,-0.012,0.000,1
1626880840414590976,pose_received,1626880840412442922,0.15,-0.764,-0.035,0.038,0.048,-0.012,0.000,1
1626880840564659968,pose_received,1626880840562520027,0.15,-0.694,-0.035,0.038,0.048,-0.012,0.000,1
1626880840714330880,pose_received,1626880840712305068,0.15,-0.624,-0.035,0.038,0.048,-0.012,0.000,1
1626880840864622080,pose_received,1626880840862482070,0.15,-0.554,-0.035,0.038,0.048,-0.012,0.000,1
1626880841014501120,pose_received,1626880841012492895,0.15,-0.484,-0.035,0.038,0.048,-0.012,0.000,1
1626880841164414976,pose_received,1626880841162337064,0.15,-0.414,-0.035,0.038,0.048,-0.012,0.000,1
1626880841314696960,pose_received,1626880841312565088,0.15,-0.344,-0.035,0.038,0.048,-0.012,0.000,1
1626880841464659968,pose_received,1626880841462459087,0.15,-0.274,-0.035,0.038,0.048,-0.012,0.000,1
1626880841614671104,pose_received,1626880841612415075,0.15,-0.204,-0.035,0.038,0.048,-0.012,0.000,1
1626880841764645120,pose_received,1626880841762428998,0.15,-0.134,-0.035,0.038,0.048,-0.012,0.000,1
1626880841914708992,pose_received,1626880841912400007,0.15,-0.064,-0.035,0.038,0.048,-0.012,0.000,1
1626880842064537088,pose_received,1626880842062315940,0.15,0.006,-0.035,0.038,0.048,-0.012,0.000,1
1626880842214765056,pose_received,1626880842212452888,0.15,0.076,-0.035,0.038,0.048,-0.012,0.000,1
1626880842364762112,pose_received,1626880842362421035,0.15,0.146,-0.035,0.038,0.048,-0.012,0.000,1
1626880842514756864,pose_received,1626880842512525081,0.15,0.216,-0.035,0.038,0.048,-0.012,0.000,1
1626880842665576960,pose_received,1626880842662414073,0.15,0.286,-0.035,0.038,0.048,-0.012,0.000,1
1626880842818505984,pose_received,1626880842813193082,0.15,0.356,-0.035,0.038,0.048,-0.012,0.000,1
1626880842963332864,pose_received,1626880842962061882,0.15,0.426,-0.035,0.038,0.048,-0.012,0.000,1
1626880843114149120,pose_received,1626880843112317085,0.15,0.496,-0.035,0.038,0.048,-0.012,0.000,1
1626880843264276992,pose_received,1626880843262444972,0.15,0.566,-0.035,0.038,0.048,-0.012,0.000,1
1626880843414643968,pose_received,1626880843412431955,0.15,0.636,-0.035,0.038,0.048,-0.012,0.000,1
1626880843565090048,pose_received,1626880843562426090,0.15,0.706,-0.035,0.038,0.048,-0.012,0.000,1
1626880843715559936,pose_received,1626880843712436914,0.15,0.776,-0.035,0.038,0.048,-0.012,0.000,1
1626880843865031936,pose_received,1626880843862442016,0.15,0.846,-0.035,0.038,0.048,-0.012,0.000,1
1626880844015568896,pose_received,1626880844013247013,0.15,0.916,-0.035,0.038,0.048,-0.012,0.000,1
1626880844164824064,pose_received,1626880844162432909,0.15,0.986,-0.035,0.038,0.048,-0.012,0.000,1
1626880844315688960,pose_received,1626880844313004016,0.15,1.056,-0.035,0.038,0.048,-0.012,0.000,1
1626880844464814848,pose_received,1626880844462426900,0.15,1.126,-0.035,0.038,0.048,-0.012,0.000,1
1626880844614679040,pose_received,1626880844612544059,0.15,1.196,-0.035,0.038,0.048,-0.012,0.000,1
1626880844764580864,pose_received,1626880844762399911,0.15,1.266,-0.035,0.038,0.048,-0.012,0.000,1
1626880844914580992,pose_received,1626880844912374973,0.15,1.336,-0.035,0.038,0.048,-0.012,0.000,1
1626880845064744960,pose_received,1626880845062311887,0.15,1.406,-0.035,0.038,0.048,-0.012,0.000,1
1626880845214878208,pose_received,1626880845212415933,0.15,1.476,-0.035,0.038,0.048,-0.012,0.000,1
1626880845364270848,pose_received,1626880845362422943,0.15,1.546,-0.035,0.038,0.048,-0.012,0.000,1
1626880845515163904,pose_received,1626880845512433052,0.15,1.616,-0.035,0.038,0.048,-0.012,0.000,1
1626880845665108992,pose_received,1626880845662354946,0.15,1.686,-0.035,0.038,0.048,-0.012,0.000,1
1626880845814834176,pose_received,1626880845812419891,0.15,1.686,-0.035,-0.032,0.048,-0.012,0.000,1
1626880845965145088,pose_received,1626880845962398052,0.15,1.686,-0.035,-0.102,0.048,-0.012,0.000,1
1626880846115021056,pose_received,1626880846112404108,0.15,1.686,-0.035,-0.172,0.048,-0.012,0.000,1
1626880846264818944,pose_received,1626880846262801885,0.15,1.686,-0.035,-0.242,0.048,-0.012,0.000,1
1626880846415087104,pose_received,1626880846412554979,0.15,1.686,-0.035,-0.312,0.048,-0.012,0.000,1
1626880846564482816,pose_received,1626880846562498092,0.15,1.686,-0.035,-0.382,0.048,-0.012,0.000,1
1626880846713288960,pose_received,1626880846712146043,0.15,1.686,-0.035,-0.452,0.048,-0.012,0.000,1
1626880846863133952,pose_received,1626880846861955881,0.15,1.686,-0.035,-0.522,0.048,-0.012,0.000,1
1626880847013499904,pose_received,1626880847012046098,0.15,1.686,-0.035,-0.592,0.048,-0.012,0.000,1
1626880847163224832,pose_received,1626880847162040948,0.15,1.686,-0.035,-0.662,0.048,-0.012,0.000,1
1626880847313189888,pose_received,1626880847312036991,0.15,1.686,-0.035,-0.732,0.048,-0.012,0.000,1
1626880847464345088,pose_received,1626880847462294101,0.15,1.686,-0.064,-0.732,0.048,-0.012,0.000,1
1626880848364679936,pose_received,1626880848362322092,0.15,1.756,-0.064,-0.732,0.048,-0.012,0.000,1
1626880848964719104,pose_received,1626880848962378025,0.15,1.756,-0.064,-0.802,0.048,-0.012,0.000,1
1626880849414987008,pose_received,1626880849412770032,0.15,1.756,-0.134,-0.802,0.048,-0.012,0.000,1
1626880849564559104,pose_received,1626880849562402009,0.15,1.756,-0.204,-0.802,0.048,-0.012,0.000,1
1626880850164380160,pose_received,1626880850162395000,0.15,1.756,-0.204,-0.732,0.048,-0.012,0.000,1
1626880850614504192,pose_received,1626880850612375020,0.15,1.756,-0.274,-0.732,0.048,-0.012,0.000,1
1626880851065323008,pose_received,1626880851062406063,0.15,1.756,-0.344,-0.732,0.048,-0.012,0.000,1
1626880851664841984,pose_received,1626880851662408113,0.15,1.756,-0.414,-0.732,0.048,-0.012,0.000,1
1626880851814585856,pose_received,1626880851812458992,0.15,1.756,-0.484,-0.732,0.048,-0.012,0.000,1
1626880852414739968,pose_received,1626880852412369012,0.15,1.756,-0.554,-0.732,0.048,-0.012,0.000,1
1626880853015350016,pose_received,1626880853012464046,0.15,1.756,-0.554,-0.671,0.048,-0.012,0.000,1
1626880853614414080,pose_received,1626880853612390995,0.15,1.756,-0.624,-0.671,0.048,-0.012,0.000,1
1626880857364702976,pose_received,1626880857362371921,0.15,1.756,-0.554,-0.671,0.048,-0.012,0.000,2
1626880857514834944,pose_received,1626880857512415885,0.15,1.756,-0.484,-0.671,0.048,-0.012,0.000,2
1626880857664882944,pose_received,1626880857662440061,0.15,1.756,-0.414,-0.671,0.048,-0.012,0.000,2
1626880857814778112,pose_received,1626880857812580108,0.15,1.756,-0.344,-0.671,0.048,-0.012,0.000,2
1626880857964965120,pose_received,1626880857962419033,0.15,1.756,-0.274,-0.671,0.048,-0.012,0.000,2
1626880858114394880,pose_received,1626880858112418889,0.15,1.756,-0.204,-0.671,0.048,-0.012,0.000,2
1626880858264416000,pose_received,1626880858262402057,0.15,1.756,-0.134,-0.671,0.048,-0.012,0.000,2
1626880858414545152,pose_received,1626880858412406921,0.15,1.756,-0.064,-0.671,0.048,-0.012,0.000,2
1626880858564338944,pose_received,1626880858562355041,0.15,1.756,0.006,-0.671,0.048,-0.012,0.000,2
1626880858714402816,pose_received,1626880858712379932,0.15,1.756,0.076,-0.671,0.048,-0.012,0.000,2
1626880858864845056,pose_received,1626880858862334966,0.15,1.756,0.146,-0.671,0.048,-0.012,0.000,2
1626880859014676992,pose_received,1626880859012414932,0.15,1.756,0.146,-0.601,0.048,-0.012,0.000,2
1626880859164396032,pose_received,1626880859162317037,0.15,1.756,0.146,-0.531,0.048,-0.012,0.000,2
1626880859317228032,pose_received,1626880859312479019,0.15,1.756,0.146,-0.461,0.048,-0.012,0.000,2
1626880859465092864,pose_received,1626880859462470054,0.15,1.756,0.146,-0.391,0.048,-0.012,0.000,2
1626880859615075072,pose_received,1626880859612301111,0.15,1.756,0.146,-0.321,0.048,-0.012,0.000,2
1626880859764898048,pose_received,1626880859762391090,0.15,1.756,0.146,-0.251,0.048,-0.012,0.000,2
1626880859914838016,pose_received,1626880859912383079,0.15,1.756,0.146,-0.181,0.048,-0.012,0.000,2
1626880860064638976,pose_received,1626880860062381029,0.15,1.756,0.146,-0.111,0.048,-0.012,0.000,2
1626880860217103104,pose_received,1626880860212380886,0.15,1.756,0.146,-0.041,0.048,-0.012,0.000,2
1626880860364365056,pose_received,1626880860362390041,0.15,1.686,0.146,-0.041,0.048,-0.012,0.000,2
1626880860515105024,pose_received,1626880860512296915,0.15,1.616,0.146,-0.041,0.048,-0.012,0.000,2
1626880860664226048,pose_received,1626880860662427902,0.15,1.546,0.146,-0.041,0.048,-0.012,0.000,2
1626880860816636928,pose_received,1626880860812963008,0.15,1.476,0.146,-0.041,0.048,-0.012,0.000,2
1626880860964883200,pose_received,1626880860962548971,0.15,1.406,0.146,-0.041,0.048,-0.012,0.000,2
1626880861114516992,pose_received,1626880861112292051,0.15,1.336,0.146,-0.041,0.048,-0.012,0.000,2
1626880861265374976,pose_received,1626880861262413978,0.15,1.266,0.146,-0.041,0.048,-0.012,0.000,2
1626880861414658048,pose_received,1626880861412650108,0.15,1.196,0.146,-0.041,0.048,-0.012,0.000,2
1626880861564760064,pose_received,1626880861562438011,0.15,1.126,0.146,-0.041,0.048,-0.012,0.000,2
1626880861714471936,pose_received,1626880861712400913,0.15,1.056,0.146,-0.041,0.048,-0.012,0.000,2
1626880861864666112,pose_received,1626880861862313985,0.15,0.986,0.146,-0.041,0.048,-0.012,0.000,2
1626880862017411072,pose_received,1626880862012450933,0.15,0.916,0.146,-0.041,0.048,-0.012,0.000,2
1626880862164154112,pose_received,1626880862162435054,0.15,0.846,0.146,-0.041,0.048,-0.012,0.000,2
1626880862314845952,pose_received,1626880862312464952,0.15,0.776,0.146,-0.041,0.048,-0.012,0.000,2
1626880862464549120,pose_received,1626880862462724924,0.15,0.706,0.146,-0.041,0.048,-0.012,0.000,2
1626880862614907136,pose_received,1626880862612432956,0.15,0.636,0.146,-0.041,0.048,-0.012,0.000,2
1626880862764830976,pose_received,1626880862762402057,0.15,0.566,0.146,-0.041,0.048,-0.012,0.000,2
1626880862914823936,pose_received,1626880862912409067,0.15,0.496,0.146,-0.041,0.048,-0.012,0.000,2
1626880863064596992,pose_received,1626880863062391042,0.15,0.426,0.146,-0.041,0.048,-0.012,0.000,2
1626880863215561984,pose_received,1626880863212400913,0.15,0.356,0.146,-0.041,0.048,-0.012,0.000,2
1626880863364759040,pose_received,1626880863362409114,0.15,0.286,0.146,-0.041,0.048,-0.012,0.000,2
1626880863514806016,pose_received,1626880863512403011,0.15,0.216,0.146,-0.041,0.048,-0.012,0.000,2
1626880863664921088,pose_received,1626880863662499904,0.15,0.146,0.146,-0.041,0.048,-0.012,0.000,2
1626880863814625024,pose_received,1626880863812427997,0.15,0.076,0.146,-0.041,0.048,-0.012,0.000,2
1626880863963564032,pose_received,1626880863962203979,0.15,0.006,0.146,-0.041,0.048,-0.012,0.000,2
1626880864113539072,pose_received,1626880864112030029,0.15,-0.064,0.146,-0.041,0.048,-0.012,0.000,2
1626880864263438848,pose_received,1626880864261938095,0.15,-0.134,0.146,-0.041,0.048,-0.012,0.000,2
1626880864415138048,pose_received,1626880864412269115,0.15,-0.204,0.146,-0.041,0.048,-0.012,0.000,2
1626880864564562176,pose_received,1626880864562417030,0.15,-0.274,0.146,-0.041,0.048,-0.012,0.000,2
1626880864714201088,pose_received,1626880864712435007,0.15,-0.344,0.146,-0.041,0.048,-0.012,0.000,2
1626880864864790016,pose_received,1626880864862428903,0.15,-0.414,0.146,-0.041,0.048,-0.012,0.000,2
1626880865014812928,pose_received,1626880865012329101,0.15,-0.484,0.146,-0.041,0.048,-0.012,0.000,2
1626880865164563968,pose_received,1626880865162436008,0.15,-0.554,0.146,-0.041,0.048,-0.012,0.000,2
1626880865314950912,pose_received,1626880865312407016,0.15,-0.624,0.146,-0.041,0.048,-0.012,0.000,2
1626880865464563968,pose_received,1626880865462332010,0.15,-0.694,0.146,-0.041,0.048,-0.012,0.000,2
1626880865617356032,pose_received,1626880865612428903,0.15,-0.764,0.146,-0.041,0.048,-0.012,0.000,2
1626880865764807936,pose_received,1626880865762418985,0.15,-0.834,0.146,-0.041,0.048,-0.012,0.000,2
1626880865914695936,pose_received,1626880865912442922,0.15,-0.904,0.146,-0.041,0.048,-0.012,0.000,2
1626880866064177152,pose_received,1626880866062319040,0.15,-0.974,0.146,-0.041,0.048,-0.012,0.000,2
1626880866214680064,pose_received,1626880866212299108,0.15,-1.044,0.146,-0.041,0.048,-0.012,0.000,2
1626880866364572928,pose_received,1626880866362380981,0.15,-1.114,0.146,-0.041,0.048,-0.012,0.000,2
1626880866515089920,pose_received,1626880866512324094,0.15,-1.184,0.146,-0.041,0.048,-0.012,0.000,2
1626880866664738816,pose_received,1626880866662404060,0.15,-1.254,0.146,-0.041,0.048,-0.012,0.000,2
1626880866820044032,pose_received,1626880866815943002,0.15,-1.324,0.146,-0.041,0.048,-0.012,0.000,2
1626880866964710912,pose_received,1626880866962447881,0.15,-1.394,0.146,-0.041,0.048,-0.012,0.000,2
1626880867114945792,pose_received,1626880867112782001,0.15,-1.394,0.146,-0.111,0.048,-0.012,0.000,2
1626880867264736768,pose_received,1626880867262367963,0.15,-1.394,0.146,-0.181,0.048,-0.012,0.000,2
1626880867415791872,pose_received,1626880867412455081,0.15,-1.394,0.146,-0.251,0.048,-0.012,0.000,2
1626880867563233024,pose_received,1626880867562165975,0.15,-1.394,0.146,-0.321,0.048,-0.012,0.000,2
1626880867714124032,pose_received,1626880867712433099,0.15,-1.394,0.146,-0.391,0.048,-0.012,0.000,2
1626880867864353792,pose_received,1626880867862473011,0.15,-1.394,0.146,-0.461,0.048,-0.012,0.000,2
1626880868015759104,pose_received,1626880868012581110,0.15,-1.394,0.146,-0.531,0.048,-0.012,0.000,2
1626880868164305920,pose_received,1626880868162492036,0.15,-1.394,0.146,-0.601,0.048,-0.012,0.000,2
1626880868315442176,pose_received,1626880868312829971,0.15,-1.394,0.146,-0.671,0.048,-0.012,0.000,2
1626880868464344064,pose_received,1626880868462477922,0.15,-1.394,0.146,-0.741,0.048,-0.012,0.000,2
1626880868614206976,pose_received,1626880868612459897,0.15,-1.394,0.146,-0.811,0.048,-0.012,0.000,2
1626880868764299008,pose_received,1626880868762322902,0.15,-1.394,0.076,-0.811,0.048,-0.012,0.000,2
1626880868914472192,pose_received,1626880868912775993,0.15,-1.394,0.006,-0.811,0.048,-0.012,0.000,2
1626880869064269056,pose_received,1626880869062412977,0.15,-1.394,-0.064,-0.811,0.048,-0.012,0.000,2
1626880869214498048,pose_received,1626880869212466001,0.15,-1.394,-0.134,-0.811,0.048,-0.012,0.000,2
1626880869364326912,pose_received,1626880869362447977,0.15,-1.394,-0.134,-0.741,0.048,-0.012,0.000,2
1626880869514179840,pose_received,1626880869512434959,0.15,-1.394,-0.134,-0.671,0.048,-0.012,0.000,2
1626880869664372992,pose_received,1626880869662362098,0.15,-1.394,-0.204,-0.671,0.048,-0.012,0.000,2
1626880869814754048,pose_received,1626880869812412977,0.15,-1.394,-0.274,-0.671,0.048,-0.012,0.000,2
1626880870264413184,pose_received,1626880870262439966,0.15,-1.394,-0.344,-0.671,0.048,-0.012,0.000,2
1626880870421808128,pose_received,1626880870414604902,0.15,-1.394,-0.414,-0.671,0.048,-0.012,0.000,2
1626880870714561024,pose_received,1626880870712301015,0.15,-1.394,-0.414,-0.601,0.048,-0.012,0.000,2
1626880870863382016,pose_received,1626880870862031936,0.15,-1.394,-0.414,-0.601,0.063,-0.012,0.000,2
1626880871013489920,pose_received,1626880871012017011,0.15,-1.394,-0.484,-0.601,0.063,-0.012,0.000,2
1626880871464215040,pose_received,1626880871462429046,0.15,-1.394,-0.554,-0.601,0.063,-0.012,0.000,2
1626880871614327040,pose_received,1626880871612463951,0.15,-1.394,-0.624,-0.601,0.063,-0.012,0.000,2
1626880871914100992,pose_received,1626880871912395000,0.15,-1.394,-0.624,-0.531,0.063,-0.012,0.000,2
1626880873114273024,pose_received,1626880873112406969,0.15,-1.394,-0.694,-0.531,0.063,-0.012,0.000,2
1626880873564323840,pose_received,1626880873562407016,0.15,-1.394,-0.694,-0.461,0.063,-0.012,0.000,2
1626880875664776960,pose_received,1626880875662380933,0.15,-1.394,-0.624,-0.461,0.063,-0.012,0.000,1
1626880875814692864,pose_received,1626880875812618017,0.15,-1.394,-0.554,-0.461,0.063,-0.012,0.000,1
1626880875964782848,pose_received,1626880875962439060,0.15,-1.394,-0.484,-0.461,0.063,-0.012,0.000,1
1626880876114852864,pose_received,1626880876112442016,0.15,-1.394,-0.414,-0.461,0.063,-0.012,0.000,1
1626880876264903936,pose_received,1626880876262376070,0.15,-1.394,-0.344,-0.461,0.063,-0.012,0.000,1
1626880876425748224,pose_received,1626880876412463903,0.15,-1.394,-0.274,-0.461,0.063,-0.012,0.000,1
1626880876565447168,pose_received,1626880876562486886,0.15,-1.394,-0.204,-0.461,0.063,-0.012,0.000,1
1626880876714646016,pose_received,1626880876712452888,0.15,-1.394,-0.134,-0.461,0.063,-0.012,0.000,1
1626880876865176832,pose_received,1626880876862816095,0.15,-1.394,-0.134,-0.391,0.063,-0.012,0.000,1
1626880877015075840,pose_received,1626880877012427091,0.15,-1.394,-0.134,-0.321,0.063,-0.012,0.000,1
1626880877165234944,pose_received,1626880877162496089,0.15,-1.394,-0.134,-0.251,0.063,-0.012,0.000,1
1626880877314914048,pose_received,1626880877312594890,0.15,-1.394,-0.134,-0.181,0.063,-0.012,0.000,1
1626880877465122048,pose_received,1626880877462433099,0.15,-1.394,-0.134,-0.111,0.063,-0.012,0.000,1
1626880877615390976,pose_received,1626880877612621068,0.15,-1.394,-0.134,-0.041,0.063,-0.012,0.000,1
1626880877764787968,pose_received,1626880877762428998,0.15,-1.394,-0.134,0.029,0.063,-0.012,0.000,1
1626880877913490944,pose_received,1626880877912179946,0.15,-1.394,-0.134,0.099,0.063,-0.012,0.000,1
1626880878064551168,pose_received,1626880878062313079,0.15,-1.324,-0.134,0.099,0.063,-0.012,0.000,1
1626880878214941952,pose_received,1626880878212462902,0.15,-1.254,-0.134,0.099,0.063,-0.012,0.000,1
1626880878364507904,pose_received,1626880878362327098,0.15,-1.184,-0.134,0.099,0.063,-0.012,0.000,1
1626880878514774016,pose_received,1626880878512456893,0.15,-1.114,-0.134,0.099,0.063,-0.012,0.000,1
1626880878664513024,pose_received,1626880878662312984,0.15,-1.044,-0.134,0.099,0.063,-0.012,0.000,1
1626880878814599936,pose_received,1626880878812438011,0.15,-0.974,-0.134,0.099,0.063,-0.012,0.000,1
1626880878964584960,pose_received,1626880878962428092,0.15,-0.904,-0.134,0.099,0.063,-0.012,0.000,1
1626880879114622208,pose_received,1626880879112445116,0.15,-0.834,-0.134,0.099,0.063,-0.012,0.000,1
1626880879264628992,pose_received,1626880879262429952,0.15,-0.764,-0.134,0.099,0.063,-0.012,0.000,1
1626880879414544128,pose_received,1626880879412419080,0.15,-0.694,-0.134,0.099,0.063,-0.012,0.000,1
1626880879564923136,pose_received,1626880879562449932,0.15,-0.624,-0.134,0.099,0.063,-0.012,0.000,1
1626880879715702016,pose_received,1626880879712433099,0.15,-0.554,-0.134,0.099,0.063,-0.012,0.000,1
1626880879865272064,pose_received,1626880879862361907,0.15,-0.484,-0.134,0.099,0.063,-0.012,0.000,1
1626880880014630144,pose_received,1626880880012403011,0.15,-0.414,-0.134,0.099,0.063,-0.012,0.000,1
1626880880164643072,pose_received,1626880880162451982,0.15,-0.344,-0.134,0.099,0.063,-0.012,0.000,1
1626880880314866176,pose_received,1626880880312475919,0.15,-0.274,-0.134,0.099,0.063,-0.012,0.000,1
1626880880464876032,pose_received,1626880880462445020,0.15,-0.204,-0.134,0.099,0.063,-0.012,0.000,1
1626880880617326080,pose_received,1626880880612396001,0.15,-0.134,-0.134,0.099,0.063,-0.012,0.000,1
1626880880764592896,pose_received,1626880880762345075,0.15,-0.064,-0.134,0.099,0.063,-0.012,0.000,1
1626880880914670080,pose_received,1626880880912302970,0.15,0.006,-0.134,0.099,0.063,-0.012,0.000,1
1626880881064848896,pose_received,1626880881062684059,0.15,0.076,-0.134,0.099,0.063,-0.012,0.000,1
1626880881216475904,pose_received,1626880881212388992,0.15,0.146,-0.134,0.099,0.063,-0.012,0.000,1
1626880881364905984,pose_received,1626880881362549066,0.15,0.216,-0.134,0.099,0.063,-0.012,0.000,1
1626880881513446144,pose_received,1626880881512171983,0.15,0.286,-0.134,0.099,0.063,-0.012,0.000,1
1626880881664531968,pose_received,1626880881662295103,0.15,0.356,-0.134,0.099,0.063,-0.012,0.000,1
1626880881819719168,pose_received,1626880881812388896,0.15,0.426,-0.134,0.099,0.063,-0.012,0.000,1
1626880881964803072,pose_received,1626880881962408065,0.15,0.496,-0.134,0.099,0.063,-0.012,0.000,1
1626880882114734848,pose_received,1626880882112406015,0.15,0.566,-0.134,0.099,0.063,-0.012,0.000,1
1626880882264786944,pose_received,1626880882262461900,0.15,0.636,-0.134,0.099,0.063,-0.012,0.000,1
1626880882414969088,pose_received,1626880882412395954,0.15,0.706,-0.134,0.099,0.063,-0.012,0.000,1
1626880882564873984,pose_received,1626880882562499046,0.15,0.776,-0.134,0.099,0.063,-0.012,0.000,1
1626880882714256896,pose_received,1626880882712416887,0.15,0.846,-0.134,0.099,0.063,-0.012,0.000,1
1626880882864919040,pose_received,1626880882862426042,0.15,0.916,-0.134,0.099,0.063,-0.012,0.000,1
1626880883014710016,pose_received,1626880883012438058,0.15,0.986,-0.134,0.099,0.063,-0.012,0.000,1
1626880883164625920,pose_received,1626880883162786006,0.15,1.056,-0.134,0.099,0.063,-0.012,0.000,1
1626880883315963136,pose_received,1626880883313097000,0.15,1.126,-0.134,0.099,0.063,-0.012,0.000,1
1626880883464782848,pose_received,1626880883462436914,0.15,1.196,-0.134,0.099,0.063,-0.012,0.000,1
1626880883616390912,pose_received,1626880883612634897,0.15,1.266,-0.134,0.099,0.063,-0.012,0.000,1
1626880883764563200,pose_received,1626880883762428045,0.15,1.266,-0.134,0.029,0.063,-0.012,0.000,1
1626880883914857984,pose_received,1626880883912409067,0.15,1.266,-0.134,-0.041,0.063,-0.012,0.000,1
1626880884064774912,pose_received,1626880884062568902,0.15,1.266,-0.134,-0.111,0.063,-0.012,0.000,1
1626880884219297024,pose_received,1626880884212723016,0.15,1.266,-0.134,-0.181,0.063,-0.012,0.000,1
1626880884364620032,pose_received,1626880884362478017,0.15,1.266,-0.134,-0.251,0.063,-0.012,0.000,1
1626880884515180032,pose_received,1626880884512610912,0.15,1.266,-0.134,-0.321,0.063,-0.012,0.000,1
1626880884664979968,pose_received,1626880884662539005,0.15,1.266,-0.134,-0.391,0.063,-0.012,0.000,1
1626880884816265216,pose_received,1626880884812516927,0.15,1.266,-0.134,-0.461,0.063,-0.012,0.000,1
1626880884966873856,pose_received,1626880884965629100,0.15,1.336,-0.134,-0.461,0.063,-0.012,0.000,1
1626880885114100992,pose_received,1626880885112243890,0.15,1.406,-0.134,-0.461,0.063,-0.012,0.000,1
1626880885265149184,pose_received,1626880885262511968,0.15,1.476,-0.134,-0.461,0.063,-0.012,0.000,1
1626880885564865024,pose_received,1626880885562418937,0.15,1.476,-0.134,-0.531,0.063,-0.012,0.000,1
1626880885714803968,pose_received,1626880885712474107,0.15,1.476,-0.134,-0.601,0.063,-0.012,0.000,1
1626880885864614912,pose_received,1626880885862438917,0.15,1.476,-0.134,-0.671,0.063,-0.012,0.000,1
1626880886015301888,pose_received,1626880886012686967,0.15,1.476,-0.134,-0.741,0.063,-0.012,0.000,1
1626880886164668160,pose_received,1626880886162447929,0.15,1.476,-0.134,-0.811,0.063,-0.012,0.000,1
1626880886314857984,pose_received,1626880886312459945,0.15,1.476,-0.204,-0.811,0.063,-0.012,0.000,1
1626880886465039872,pose_received,1626880886462529897,0.15,1.476,-0.274,-0.811,0.063,-0.012,0.000,1
1626880887064656128,pose_received,1626880887062386989,0.15,1.476,-0.344,-0.811,0.063,-0.012,0.000,1
1626880887515037952,pose_received,1626880887512726068,0.15,1.476,-0.406,-0.811,0.063,-0.012,0.000,1
1626880887664273920,pose_received,1626880887662518978,0.15,1.476,-0.406,-0.741,0.063,-0.012,0.000,1
1626880888113389056,pose_received,1626880888112112045,0.15,1.476,-0.476,-0.741,0.063,-0.012,0.000,1
1626880888414125056,pose_received,1626880888412283897,0.15,1.476,-0.546,-0.741,0.063,-0.012,0.000,1
1626880889914530048,pose_received,1626880889912363052,0.15,1.476,-0.546,-0.671,0.063,-0.012,0.000,1
1626880890664972032,pose_received,1626880890662419080,0.15,1.476,-0.616,-0.671,0.063,-0.012,0.000,1
1626880893364447232,pose_received,1626880893362293004,0.15,1.476,-0.546,-0.671,0.063,-0.012,0.000,2
1626880893514651136,pose_received,1626880893512403011,0.15,1.476,-0.476,-0.671,0.063,-0.012,0.000,2
1626880893664912896,pose_received,1626880893662503957,0.15,1.476,-0.406,-0.671,0.063,-0.012,0.000,2
1626880893815875072,pose_received,1626880893812505960,0.15,1.476,-0.336,-0.671,0.063,-0.012,0.000,2
1626880893964681984,pose_received,1626880893962460041,0.15,1.476,-0.266,-0.671,0.063,-0.012,0.000,2
1626880894114671104,pose_received,1626880894112387895,0.15,1.476,-0.196,-0.671,0.063,-0.012,0.000,2
1626880894265953024,pose_received,1626880894262592077,0.15,1.476,-0.126,-0.671,0.063,-0.012,0.000,2
1626880894418899968,pose_received,1626880894413862943,0.15,1.476,-0.056,-0.671,0.063,-0.012,0.000,2
1626880894564279040,pose_received,1626880894562524080,0.15,1.476,0.014,-0.671,0.063,-0.012,0.000,2
1626880894715075072,pose_received,1626880894712486028,0.15,1.476,0.014,-0.601,0.063,-0.012,0.000,2
1626880894864627968,pose_received,1626880894862413883,0.15,1.476,0.014,-0.531,0.063,-0.012,0.000,2
1626880895020286208,pose_received,1626880895012346029,0.15,1.476,0.014,-0.461,0.063,-0.012,0.000,2
1626880895165203968,pose_received,1626880895162487030,0.15,1.476,0.014,-0.391,0.063,-0.012,0.000,2
1626880895315105792,pose_received,1626880895312486886,0.15,1.476,0.014,-0.321,0.063,-0.012,0.000,2
1626880895464953856,pose_received,1626880895462599039,0.15,1.476,0.014,-0.251,0.063,-0.012,0.000,2
1626880895617330176,pose_received,1626880895612401962,0.15,1.476,0.014,-0.181,0.063,-0.012,0.000,2
1626880895764564992,pose_received,1626880895762311935,0.15,1.476,0.014,-0.111,0.063,-0.012,0.000,2
1626880895913466880,pose_received,1626880895912167072,0.15,1.476,0.014,-0.041,0.063,-0.012,0.000,2
1626880896064838912,pose_received,1626880896062338113,0.15,1.406,0.009,-0.041,0.063,-0.012,0.000,2
1626880896215207936,pose_received,1626880896212431907,0.15,1.336,-0.017,-0.041,0.063,-0.012,0.000,2
1626880896365026048,pose_received,1626880896362474918,0.15,1.266,-0.042,-0.041,0.063,-0.012,0.000,2
1626880896518796032,pose_received,1626880896513817071,0.15,1.196,-0.068,-0.041,0.063,-0.012,0.000,2
1626880896665133056,pose_received,1626880896662549972,0.15,1.126,-0.094,-0.041,0.063,-0.012,0.000,2
1626880896814275072,pose_received,1626880896812442064,0.15,1.056,-0.120,-0.041,0.063,-0.012,0.000,2
1626880896964284928,pose_received,1626880896962352037,0.15,0.986,-0.145,-0.041,0.063,-0.012,0.000,2
1626880897114833152,pose_received,1626880897112282991,0.15,0.986,-0.145,0.029,0.063,-0.012,0.000,2
1626880897264993792,pose_received,1626880897262525081,0.15,0.986,-0.145,0.099,0.063,-0.012,0.000,2
1626880897414680832,pose_received,1626880897412404060,0.15,0.986,-0.145,0.169,0.063,-0.012,0.000,2
1626880897564762112,pose_received,1626880897562510967,0.15,0.916,-0.163,0.169,0.063,-0.012,0.000,2
1626880897718946048,pose_received,1626880897712385892,0.15,0.846,-0.180,0.169,0.063,-0.012,0.000,2
1626880897865773056,pose_received,1626880897862432003,0.15,0.776,-0.180,0.169,0.063,-0.012,0.000,2
1626880898015568896,pose_received,1626880898012568950,0.15,0.706,-0.180,0.169,0.063,-0.012,0.000,2
1626880898164730112,pose_received,1626880898162338018,0.15,0.636,-0.180,0.169,0.063,-0.012,0.000,2
1626880898315303168,pose_received,1626880898312480926,0.15,0.566,-0.180,0.169,0.063,-0.012,0.000,2
1626880898464903168,pose_received,1626880898462454080,0.15,0.496,-0.180,0.169,0.063,-0.012,0.000,2
1626880898615665920,pose_received,1626880898612555027,0.15,0.426,-0.180,0.169,0.063,-0.012,0.000,2
1626880898764965888,pose_received,1626880898762496948,0.15,0.356,-0.180,0.169,0.063,-0.012,0.000,2
1626880898914309120,pose_received,1626880898912393093,0.15,0.286,-0.180,0.169,0.063,-0.012,0.000,2
1626880899064357120,pose_received,1626880899062585115,0.15,0.216,-0.180,0.169,0.063,-0.012,0.000,2
1626880899213570048,pose_received,1626880899212155103,0.15,0.146,-0.180,0.169,0.063,-0.012,0.000,2
1626880899363234048,pose_received,1626880899361902952,0.15,0.076,-0.180,0.169,0.063,-0.012,0.000,2
1626880899514818048,pose_received,1626880899512464046,0.15,0.006,-0.180,0.169,0.063,-0.012,0.000,2
1626880899664307968,pose_received,1626880899662530899,0.15,-0.064,-0.180,0.169,0.063,-0.012,0.000,2
1626880899815085824,pose_received,1626880899812849998,0.15,-0.134,-0.180,0.169,0.063,-0.012,0.000,2
1626880899964962048,pose_received,1626880899962465047,0.15,-0.204,-0.180,0.169,0.063,-0.012,0.000,2
1626880900114732032,pose_received,1626880900112418889,0.15,-0.274,-0.180,0.169,0.063,-0.012,0.000,2
1626880900264791040,pose_received,1626880900262562990,0.15,-0.344,-0.180,0.169,0.063,-0.012,0.000,2
1626880900415139072,pose_received,1626880900412430047,0.15,-0.414,-0.180,0.169,0.063,-0.012,0.000,2
1626880900564579840,pose_received,1626880900562417984,0.15,-0.484,-0.180,0.169,0.063,-0.012,0.000,2
1626880900714777856,pose_received,1626880900712428092,0.15,-0.554,-0.180,0.169,0.063,-0.012,0.000,2
1626880900864785920,pose_received,1626880900862438917,0.15,-0.624,-0.180,0.169,0.063,-0.012,0.000,2
1626880901014683904,pose_received,1626880901012500047,0.15,-0.694,-0.180,0.169,0.063,-0.012,0.000,2
1626880901164721920,pose_received,1626880901162472963,0.15,-0.764,-0.180,0.169,0.063,-0.012,0.000,2
1626880901320066048,pose_received,1626880901316510915,0.15,-0.834,-0.180,0.169,0.063,-0.012,0.000,2
1626880901464935936,pose_received,1626880901462430953,0.15,-0.904,-0.180,0.169,0.063,-0.012,0.000,2
1626880901614536960,pose_received,1626880901612442016,0.15,-0.974,-0.180,0.169,0.063,-0.012,0.000,2
1626880901765254144,pose_received,1626880901762408971,0.15,-1.044,-0.180,0.169,0.063,-0.012,0.000,2
1626880901914274048,pose_received,1626880901912416934,0.15,-1.114,-0.180,0.169,0.063,-0.012,0.000,2
1626880902064326144,pose_received,1626880902062441110,0.15,-1.184,-0.180,0.169,0.063,-0.012,0.000,2
1626880902214809856,pose_received,1626880902212585926,0.15,-1.254,-0.180,0.169,0.063,-0.012,0.000,2
1626880902367377152,pose_received,1626880902363215923,0.15,-1.324,-0.180,0.169,0.063,-0.012,0.000,2
1626880902514436096,pose_received,1626880902512650012,0.15,-1.324,-0.180,0.099,0.063,-0.012,0.000,2
1626880902663463168,pose_received,1626880902662082910,0.15,-1.324,-0.180,0.029,0.063,-0.012,0.000,2
1626880902814048000,pose_received,1626880902812036991,0.15,-1.324,-0.180,-0.041,0.063,-0.012,0.000,2
1626880902964112896,pose_received,1626880902962281942,0.15,-1.324,-0.180,-0.111,0.063,-0.012,0.000,2
1626880903114765824,pose_received,1626880903112413883,0.15,-1.324,-0.180,-0.181,0.063,-0.012,0.000,2
1626880903264837888,pose_received,1626880903262427091,0.15,-1.324,-0.180,-0.251,0.063,-0.012,0.000,2
1626880903415121152,pose_received,1626880903412445068,0.15,-1.324,-0.180,-0.321,0.063,-0.012,0.000,2
1626880903564819968,pose_received,1626880903562364101,0.15,-1.324,-0.180,-0.391,0.063,-0.012,0.000,2
1626880903714566912,pose_received,1626880903712424039,0.15,-1.324,-0.180,-0.461,0.063,-0.012,0.000,2
1626880903864783104,pose_received,1626880903862451076,0.15,-1.324,-0.180,-0.531,0.063,-0.012,0.000,2
1626880904014880000,pose_received,1626880904012372970,0.15,-1.324,-0.180,-0.601,0.063,-0.012,0.000,2
1626880904164630016,pose_received,1626880904162275075,0.15,-1.324,-0.250,-0.601,0.069,-0.012,0.000,2
1626880905064878848,pose_received,1626880905062417984,0.15,-1.324,-0.320,-0.601,0.069,-0.012,0.000,2
1626880905365132032,pose_received,1626880905362359046,0.15,-1.324,-0.320,-0.601,-0.001,-0.012,0.000,2
1626880906264715008,pose_received,1626880906262409925,0.15,-1.394,-0.377,-0.601,-0.001,-0.012,0.000,2
1626880906864662784,pose_received,1626880906862432003,0.15,-1.324,-0.377,-0.601,-0.001,-0.012,0.000,2
1626880907014808064,pose_received,1626880907012535095,0.15,-1.254,-0.377,-0.601,-0.001,-0.012,0.000,2
1626880907165019904,pose_received,1626880907162758111,0.15,-1.184,-0.377,-0.601,-0.001,-0.012,0.000,2
1626880907464841984,pose_received,1626880907462445020,0.15,-1.184,-0.377,-0.531,-0.001,-0.012,0.000,2
1626880907914750208,pose_received,1626880907912386894,0.15,-1.184,-0.447,-0.531,-0.001,-0.012,0.000,2
1626880908664788992,pose_received,1626880908662430047,0.15,-1.184,-0.517,-0.531,-0.001,-0.012,0.000,2
1626880908964612096,pose_received,1626880908962342023,0.15,-1.184,-0.517,-0.461,-0.001,-0.012,0.000,2
1626880909413435904,pose_received,1626880909412127971,0.15,-1.184,-0.587,-0.461,-0.001,-0.012,0.000,2
1626880909865145856,pose_received,1626880909862370967,0.15,-1.184,-0.657,-0.461,-0.001,-0.012,0.000,2
1626880910164772864,pose_received,1626880910162357091,0.15,-1.184,-0.657,-0.391,-0.001,-0.012,0.000,2
1626880910614695936,pose_received,1626880910612390041,0.15,-1.184,-0.727,-0.391,-0.001,-0.012,0.000,2
1626880912564663808,pose_received,1626880912562410116,0.15,-1.184,-0.657,-0.391,-0.001,-0.012,0.000,1
1626880912714577920,pose_received,1626880912712409973,0.15,-1.184,-0.587,-0.391,-0.001,-0.012,0.000,1
1626880912863614208,pose_received,1626880912862201929,0.15,-1.184,-0.517,-0.391,-0.001,-0.012,0.000,1
1626880913015131904,pose_received,1626880913012330055,0.15,-1.184,-0.447,-0.391,-0.001,-0.012,0.000,1
1626880913164182784,pose_received,1626880913162329912,0.15,-1.184,-0.377,-0.391,-0.001,-0.012,0.000,1
1626880913314352128,pose_received,1626880913312534093,0.15,-1.184,-0.307,-0.391,-0.001,-0.012,0.000,1
1626880913464844032,pose_received,1626880913462455987,0.15,-1.184,-0.237,-0.391,-0.001,-0.012,0.000,1
1626880913617771008,pose_received,1626880913612409114,0.15,-1.184,-0.167,-0.321,-0.001,-0.012,0.000,1
1626880913764928000,pose_received,1626880913762434005,0.15,-1.184,-0.167,-0.251,-0.001,-0.012,0.000,1
1626880913915038976,pose_received,1626880913912379980,0.15,-1.184,-0.167,-0.181,-0.001,-0.012,0.000,1
1626880914064615936,pose_received,1626880914062428951,0.15,-1.184,-0.167,-0.111,-0.001,-0.012,0.000,1
1626880914214839808,pose_received,1626880914212450027,0.15,-1.184,-0.167,-0.041,-0.001,-0.012,0.000,1
1626880914364593920,pose_received,1626880914362406015,0.15,-1.184,-0.167,0.029,-0.001,-0.012,0.000,1
1626880914515510016,pose_received,1626880914512506961,0.15,-1.184,-0.167,0.099,-0.001,-0.012,0.000,1
1626880914664652032,pose_received,1626880914662420988,0.15,-1.184,-0.167,0.169,-0.001,-0.012,0.000,1
1626880914815529984,pose_received,1626880914812426090,0.15,-1.114,-0.167,0.169,-0.001,-0.012,0.000,1
1626880914965373952,pose_received,1626880914962390899,0.15,-1.044,-0.167,0.169,-0.001,-0.012,0.000,1
1626880915116052992,pose_received,1626880915112384080,0.15,-0.974,-0.167,0.169,-0.001,-0.012,0.000,1
1626880915264614144,pose_received,1626880915262387990,0.15,-0.904,-0.167,0.169,-0.001,-0.012,0.000,1
1626880915414836992,pose_received,1626880915412410020,0.15,-0.834,-0.167,0.169,-0.001,-0.012,0.000,1
1626880915564676096,pose_received,1626880915562405109,0.15,-0.764,-0.167,0.169,-0.001,-0.012,0.000,1
1626880915714927872,pose_received,1626880915712471961,0.15,-0.694,-0.167,0.169,-0.001,-0.012,0.000,1
1626880915864142848,pose_received,1626880915862308979,0.15,-0.624,-0.167,0.169,-0.001,-0.012,0.000,1
1626880916014978048,pose_received,1626880916012411117,0.15,-0.554,-0.167,0.169,-0.001,-0.012,0.000,1
1626880916164655872,pose_received,1626880916162415981,0.15,-0.484,-0.167,0.169,-0.001,-0.012,0.000,1
1626880916314995968,pose_received,1626880916312474966,0.15,-0.414,-0.167,0.169,-0.001,-0.012,0.000,1
1626880916464662016,pose_received,1626880916462424039,0.15,-0.344,-0.167,0.169,-0.001,-0.012,0.000,1
1626880916614896128,pose_received,1626880916612411022,0.15,-0.274,-0.167,0.169,-0.001,-0.012,0.000,1
1626880916764612864,pose_received,1626880916762478113,0.15,-0.204,-0.167,0.169,-0.001,-0.012,0.000,1
1626880916914828032,pose_received,1626880916912445068,0.15,-0.134,-0.167,0.169,-0.001,-0.012,0.000,1
1626880917064659200,pose_received,1626880917062484979,0.15,-0.064,-0.167,0.169,-0.001,-0.012,0.000,1
1626880917217192960,pose_received,1626880917212475061,0.15,0.006,-0.167,0.169,-0.001,-0.012,0.000,1
1626880917365079040,pose_received,1626880917362463951,0.15,0.076,-0.167,0.169,-0.001,-0.012,0.000,1
1626880917514717184,pose_received,1626880917512470006,0.15,0.146,-0.167,0.169,-0.001,-0.012,0.000,1
1626880917664664064,pose_received,1626880917662473917,0.15,0.216,-0.167,0.169,-0.001,-0.012,0.000,1
1626880917815229952,pose_received,1626880917812750101,0.15,0.286,-0.167,0.169,-0.001,-0.012,0.000,1
1626880917964638976,pose_received,1626880917962495088,0.15,0.356,-0.167,0.169,-0.001,-0.012,0.000,1
1626880918114664192,pose_received,1626880918112430095,0.15,0.426,-0.167,0.169,-0.001,-0.012,0.000,1
1626880918265153024,pose_received,1626880918262433052,0.15,0.496,-0.167,0.169,-0.001,-0.012,0.000,1
1626880918415311104,pose_received,1626880918412480115,0.15,0.566,-0.167,0.169,-0.001,-0.012,0.000,1
1626880918564505088,pose_received,1626880918562406063,0.15,0.636,-0.167,0.169,-0.001,-0.012,0.000,1
1626880918714391040,pose_received,1626880918712378978,0.15,0.706,-0.167,0.169,-0.001,-0.012,0.000,1
1626880918864849920,pose_received,1626880918862451076,0.15,0.776,-0.167,0.169,-0.001,-0.012,0.000,1
1626880919020983040,pose_received,1626880919012465000,0.15,0.846,-0.167,0.169,-0.001,-0.012,0.000,1
1626880919164758016,pose_received,1626880919162580013,0.15,0.916,-0.167,0.169,-0.001,-0.012,0.000,1
1626880919314235904,pose_received,1626880919312424898,0.15,0.986,-0.167,0.169,-0.001,-0.012,0.000,1
1626880919465414912,pose_received,1626880919462538957,0.15,1.056,-0.167,0.169,-0.001,-0.012,0.000,1
1626880919616563200,pose_received,1626880919612452983,0.15,1.126,-0.167,0.169,-0.001,-0.012,0.000,1
1626880919763448064,pose_received,1626880919762149095,0.15,1.126,-0.167,0.099,0.018,-0.012,0.000,1
1626880919913242112,pose_received,1626880919912007093,0.15,1.126,-0.167,0.029,0.036,-0.012,0.000,1
1626880920065059840,pose_received,1626880920062328100,0.15,1.126,-0.167,-0.041,0.054,-0.012,0.000,1
1626880920220019200,pose_received,1626880920212528944,0.15,1.126,-0.167,-0.111,0.072,-0.012,0.000,1
1626880920364751104,pose_received,1626880920362457036,0.15,1.126,-0.167,-0.181,0.090,-0.012,0.000,1
1626880920514169088,pose_received,1626880920512447118,0.15,1.126,-0.167,-0.251,0.108,-0.012,0.000,1
1626880920665273856,pose_received,1626880920662508964,0.15,1.126,-0.167,-0.321,0.126,-0.012,0.000,1
1626880920817622784,pose_received,1626880920812413930,0.15,1.126,-0.167,-0.391,0.144,-0.012,0.000,1
1626880920964385024,pose_received,1626880920962440013,0.15,1.126,-0.167,-0.461,0.162,-0.012,0.000,1
1626880921114321920,pose_received,1626880921112397909,0.15,1.126,-0.167,-0.531,0.180,-0.012,0.000,1
1626880921264401920,pose_received,1626880921262413978,0.15,1.126,-0.167,-0.601,0.197,-0.012,0.000,1
1626880921414932992,pose_received,1626880921412951946,0.15,1.126,-0.167,-0.671,0.214,-0.012,0.000,1
1626880921564783104,pose_received,1626880921562530040,0.15,1.126,-0.167,-0.741,0.232,-0.012,0.000,1
1626880921715326976,pose_received,1626880921712886095,0.15,1.126,-0.237,-0.741,0.232,-0.012,0.000,1
1626880921864720128,pose_received,1626880921862394094,0.15,1.126,-0.307,-0.741,0.232,-0.012,0.000,1
1626880922464819968,pose_received,1626880922462373018,0.15,1.126,-0.377,-0.741,0.232,-0.012,0.000,1
1626880923063361792,pose_received,1626880923062108993,0.15,1.126,-0.447,-0.741,0.232,-0.012,0.000,1
1626880923664608000,pose_received,1626880923662257909,0.15,1.126,-0.517,-0.741,0.232,-0.012,0.000,1
1626880923817600000,pose_received,1626880923812414884,0.15,1.126,-0.587,-0.741,0.232,-0.012,0.000,1
1626880923964570112,pose_received,1626880923962383985,0.15,1.126,-0.587,-0.671,0.232,-0.012,0.000,1
1626880924564481024,pose_received,1626880924562323093,0.15,1.126,-0.657,-0.671,0.232,-0.012,0.000,1
1626880924714301184,pose_received,1626880924712438106,0.15,1.126,-0.727,-0.671,0.232,-0.012,0.000,1
1626880925015005952,pose_received,1626880925012433052,0.15,1.126,-0.727,-0.601,0.232,-0.012,0.000,1
1626880926663271936,pose_received,1626880926661995887,0.15,1.126,-0.657,-0.601,0.232,-0.012,0.000,1
1626880930263222016,pose_received,1626880930262021064,0.15,1.126,-0.587,-0.601,0.232,-0.012,0.000,2
1626880930413960960,pose_received,1626880930411981105,0.15,1.126,-0.517,-0.601,0.232,-0.012,0.000,2
1626880930563324928,pose_received,1626880930562052011,0.15,1.126,-0.447,-0.601,0.232,-0.012,0.000,2
1626880930715099136,pose_received,1626880930712280988,0.15,1.126,-0.377,-0.601,0.232,-0.012,0.000,2
1626880930864752128,pose_received,1626880930862337112,0.15,1.126,-0.307,-0.601,0.232,-0.012,0.000,2
1626880931015131904,pose_received,1626880931012552976,0.15,1.126,-0.237,-0.601,0.232,-0.012,0.000,2
1626880931164900096,pose_received,1626880931162410020,0.15,1.126,-0.167,-0.601,0.232,-0.012,0.000,2
1626880931315116032,pose_received,1626880931312421083,0.15,1.126,-0.097,-0.601,0.232,-0.012,0.000,2
1626880931465042176,pose_received,1626880931462474107,0.15,1.126,-0.097,-0.531,0.232,-0.012,0.000,2
1626880931616805120,pose_received,1626880931612407922,0.15,1.126,-0.097,-0.461,0.232,-0.012,0.000,2
1626880931764976128,pose_received,1626880931762393951,0.15,1.126,-0.097,-0.391,0.232,-0.012,0.000,2
1626880931914654976,pose_received,1626880931912312984,0.15,1.126,-0.097,-0.321,0.232,-0.012,0.000,2
1626880932064539904,pose_received,1626880932062444925,0.15,1.126,-0.097,-0.251,0.232,-0.012,0.000,2
1626880932214387968,pose_received,1626880932212328910,0.15,1.126,-0.097,-0.181,0.232,-0.012,0.000,2
1626880932364433152,pose_received,1626880932362385034,0.15,1.126,-0.097,-0.111,0.232,-0.012,0.000,2
1626880932514529024,pose_received,1626880932512438058,0.15,1.126,-0.097,-0.041,0.232,-0.012,0.000,2
1626880932664432896,pose_received,1626880932662467002,0.15,1.126,-0.097,0.029,0.232,-0.012,0.000,2
1626880932814206976,pose_received,1626880932812247037,0.15,1.056,-0.097,0.029,0.232,-0.012,0.000,2
1626880932964422912,pose_received,1626880932962419986,0.15,0.986,-0.115,0.029,0.232,-0.012,0.000,2
1626880933114332928,pose_received,1626880933112292051,0.15,0.916,-0.132,0.029,0.232,-0.012,0.000,2
1626880933264467968,pose_received,1626880933262449979,0.15,0.846,-0.149,0.029,0.232,-0.012,0.000,2
1626880933414365952,pose_received,1626880933412441968,0.15,0.776,-0.167,0.029,0.232,-0.012,0.000,2
1626880933564295936,pose_received,1626880933562321901,0.15,0.706,-0.184,0.029,0.232,-0.012,0.000,2
1626880933714308864,pose_received,1626880933712371110,0.15,0.706,-0.184,0.099,0.232,-0.012,0.000,2
1626880933863343104,pose_received,1626880933862185955,0.15,0.706,-0.184,0.169,0.232,-0.012,0.000,2
1626880934014315008,pose_received,1626880934012258052,0.15,0.706,-0.184,0.239,0.232,-0.012,0.000,2
1626880934164460032,pose_received,1626880934162486076,0.15,0.636,-0.184,0.239,0.232,-0.012,0.000,2
1626880934314849024,pose_received,1626880934312455892,0.15,0.566,-0.184,0.239,0.232,-0.012,0.000,2
1626880934464459776,pose_received,1626880934462450981,0.15,0.496,-0.184,0.239,0.232,-0.012,0.000,2
1626880934614490880,pose_received,1626880934612452030,0.15,0.426,-0.184,0.239,0.232,-0.012,0.000,2
1626880934766308096,pose_received,1626880934764092922,0.15,0.356,-0.184,0.239,0.232,-0.012,0.000,2
1626880934914558976,pose_received,1626880934912390947,0.15,0.286,-0.184,0.239,0.232,-0.012,0.000,2
1626880935064929024,pose_received,1626880935062513113,0.15,0.216,-0.184,0.239,0.232,-0.012,0.000,2
1626880935215065856,pose_received,1626880935212522029,0.15,0.146,-0.184,0.239,0.232,-0.012,0.000,2
1626880935364752128,pose_received,1626880935362433910,0.15,0.076,-0.184,0.239,0.232,-0.012,0.000,2
1626880935514190848,pose_received,1626880935512499094,0.15,0.006,-0.184,0.239,0.232,-0.012,0.000,2
1626880935664545024,pose_received,1626880935662436962,0.15,-0.064,-0.184,0.239,0.232,-0.012,0.000,2
1626880935814439936,pose_received,1626880935812483072,0.15,-0.134,-0.184,0.239,0.232,-0.012,0.000,2
1626880935964570112,pose_received,1626880935962380886,0.15,-0.204,-0.184,0.239,0.232,-0.012,0.000,2
1626880936114960896,pose_received,1626880936112422943,0.15,-0.274,-0.184,0.239,0.232,-0.012,0.000,2
1626880936265362944,pose_received,1626880936262500047,0.15,-0.344,-0.184,0.239,0.232,-0.012,0.000,2
1626880936416944128,pose_received,1626880936412448883,0.15,-0.414,-0.184,0.239,0.232,-0.012,0.000,2
1626880936564642048,pose_received,1626880936562412023,0.15,-0.484,-0.184,0.239,0.232,-0.012,0.000,2
1626880936714149120,pose_received,1626880936712398052,0.15,-0.554,-0.184,0.239,0.232,-0.012,0.000,2
1626880936864921088,pose_received,1626880936862492084,0.15,-0.624,-0.184,0.239,0.232,-0.012,0.000,2
1626880937014877952,pose_received,1626880937012511968,0.15,-0.694,-0.184,0.239,0.232,-0.012,0.000,2
1626880937163428096,pose_received,1626880937162184953,0.15,-0.764,-0.184,0.239,0.232,-0.012,0.000,2
1626880937313307904,pose_received,1626880937312046051,0.15,-0.834,-0.184,0.239,0.232,-0.012,0.000,2
1626880937463264000,pose_received,1626880937461998939,0.15,-0.904,-0.184,0.239,0.232,-0.012,0.000,2
1626880937615808000,pose_received,1626880937614068984,0.15,-0.974,-0.184,0.239,0.232,-0.012,0.000,2
1626880937764475136,pose_received,1626880937762311935,0.15,-1.044,-0.184,0.239,0.232,-0.012,0.000,2
1626880937914670080,pose_received,1626880937912432909,0.15,-1.114,-0.184,0.239,0.232,-0.012,0.000,2
1626880938064806912,pose_received,1626880938062386989,0.15,-1.184,-0.184,0.239,0.232,-0.012,0.000,2
1626880938214391040,pose_received,1626880938212565898,0.15,-1.184,-0.184,0.169,0.232,-0.012,0.000,2
1626880938364721920,pose_received,1626880938362889051,0.15,-1.184,-0.184,0.099,0.232,-0.012,0.000,2
1626880938514315008,pose_received,1626880938512526988,0.15,-1.184,-0.184,0.029,0.232,-0.012,0.000,2
1626880938664338176,pose_received,1626880938662451982,0.15,-1.184,-0.184,-0.041,0.232,-0.012,0.000,2
1626880938814336000,pose_received,1626880938812482118,0.15,-1.184,-0.184,-0.111,0.232,-0.012,0.000,2
1626880938964251136,pose_received,1626880938962460994,0.15,-1.184,-0.184,-0.181,0.232,-0.012,0.000,2
1626880939114257152,pose_received,1626880939112508058,0.15,-1.184,-0.184,-0.251,0.232,-0.012,0.000,2
1626880939265708800,pose_received,1626880939262381076,0.15,-1.184,-0.184,-0.321,0.232,-0.012,0.000,2
1626880939414555904,pose_received,1626880939412501096,0.15,-1.184,-0.184,-0.391,0.232,-0.012,0.000,2
1626880939564130048,pose_received,1626880939562381029,0.15,-1.184,-0.184,-0.461,0.232,-0.012,0.000,2
1626880939714255104,pose_received,1626880939712430000,0.15,-1.184,-0.184,-0.531,0.232,-0.012,0.000,2
1626880939864391168,pose_received,1626880939862457036,0.15,-1.184,-0.184,-0.601,0.232,-0.012,0.000,2
1626880940164460032,pose_received,1626880940162589073,0.15,-1.114,-0.114,-0.601,0.232,-0.012,0.000,2
1626880940318087936,pose_received,1626880940312575101,0.15,-1.044,-0.044,-0.601,0.232,-0.012,0.000,2
1626880941063430144,pose_received,1626880941062103033,0.15,-1.044,-0.114,-0.601,0.232,-0.012,0.000,2
1626880941214544896,pose_received,1626880941212244987,0.15,-1.044,-0.184,-0.601,0.232,-0.012,0.000,2
1626880941364537856,pose_received,1626880941362428903,0.15,-1.044,-0.184,-0.531,0.232,-0.012,0.000,2
1626880941514796032,pose_received,1626880941512583971,0.15,-1.044,-0.254,-0.531,0.232,-0.012,0.000,2
1626880941664979968,pose_received,1626880941662467956,0.15,-1.044,-0.324,-0.531,0.232,-0.012,0.000,2
1626880942114778880,pose_received,1626880942112334012,0.15,-1.044,-0.394,-0.531,0.232,-0.012,0.000,2
1626880942264761088,pose_received,1626880942262438058,0.15,-1.044,-0.464,-0.531,0.232,-0.012,0.000,2
1626880942715440896,pose_received,1626880942712294101,0.15,-1.042,-0.534,-0.531,0.232,-0.012,0.000,2
1626880942864808192,pose_received,1626880942862447977,0.15,-1.042,-0.534,-0.461,0.232,-0.012,0.000,2
1626880943164172032,pose_received,1626880943162261962,0.15,-1.042,-0.604,-0.461,0.232,-0.012,0.000,2
1626880943764621056,pose_received,1626880943762392997,0.15,-1.042,-0.674,-0.461,0.232,-0.012,0.000,2
1626880943915113984,pose_received,1626880943912393093,0.15,-1.042,-0.674,-0.391,0.232,-0.012,0.000,2
1626880944514296064,pose_received,1626880944512285947,0.15,-1.042,-0.744,-0.391,0.232,-0.012,0.000,2
1626880959063249152,pose_received,1626880959061991930,0.15,-1.042,-0.674,-0.391,0.232,-0.012,0.000,1
1626880959215114240,pose_received,1626880959212304115,0.15,-1.042,-0.604,-0.391,0.232,-0.012,0.000,1
1626880959365009152,pose_received,1626880959362473011,0.15,-1.042,-0.534,-0.391,0.232,-0.012,0.000,1
1626880959514967808,pose_received,1626880959512337923,0.15,-1.042,-0.464,-0.391,0.232,-0.012,0.000,1
1626880959664805888,pose_received,1626880959662503004,0.15,-1.042,-0.394,-0.391,0.232,-0.012,0.000,1
1626880959816678912,pose_received,1626880959812319040,0.15,-1.042,-0.324,-0.391,0.232,-0.012,0.000,1
1626880959964772096,pose_received,1626880959962270021,0.15,-1.042,-0.254,-0.391,0.232,-0.012,0.000,1
1626880960114669056,pose_received,1626880960112386941,0.15,-1.042,-0.184,-0.391,0.232,-0.012,0.000,1
1626880960264764160,pose_received,1626880960262417078,0.15,-1.042,-0.184,-0.321,0.232,-0.012,0.000,1
1626880960414936064,pose_received,1626880960412480115,0.15,-1.042,-0.184,-0.251,0.232,-0.012,0.000,1
1626880960564739840,pose_received,1626880960562400102,0.15,-1.042,-0.184,-0.181,0.232,-0.012,0.000,1
1626880960714539008,pose_received,1626880960712285995,0.15,-1.042,-0.184,-0.111,0.232,-0.012,0.000,1
1626880960864825088,pose_received,1626880960862426996,0.15,-1.042,-0.184,-0.041,0.232,-0.012,0.000,1
1626880961021820928,pose_received,1626880961012427091,0.15,-1.042,-0.184,0.029,0.232,-0.012,0.000,1
1626880961165106944,pose_received,1626880961162353038,0.15,-0.972,-0.184,0.029,0.232,-0.012,0.000,1
1626880961315438080,pose_received,1626880961312557935,0.15,-0.902,-0.184,0.029,0.232,-0.012,0.000,1
1626880961614782208,pose_received,1626880961612384080,0.15,-0.902,-0.114,0.029,0.232,-0.012,0.000,1
1626880961765604864,pose_received,1626880961763051986,0.15,-0.902,-0.044,0.029,0.232,-0.012,0.000,1
1626880962213890048,pose_received,1626880962212161064,0.15,-0.832,-0.044,0.029,0.232,-0.012,0.000,1
1626880962363388928,pose_received,1626880962362035989,0.15,-0.762,-0.044,0.029,0.232,-0.012,0.000,1
1626880962514643968,pose_received,1626880962512327909,0.15,-0.692,-0.044,0.029,0.232,-0.012,0.000,1
1626880962664720128,pose_received,1626880962662450075,0.15,-0.622,-0.044,0.029,0.232,-0.012,0.000,1
1626880962814782976,pose_received,1626880962812398910,0.15,-0.552,-0.044,0.029,0.232,-0.012,0.000,1
1626880962964786176,pose_received,1626880962962449073,0.15,-0.482,-0.044,0.029,0.232,-0.012,0.000,1
1626880963116475136,pose_received,1626880963112433910,0.15,-0.412,-0.044,0.029,0.232,-0.012,0.000,1
1626880963264631040,pose_received,1626880963262419939,0.15,-0.342,-0.044,0.029,0.232,-0.012,0.000,1
1626880963414629888,pose_received,1626880963412439107,0.15,-0.272,-0.044,0.029,0.232,-0.012,0.000,1
1626880963564631040,pose_received,1626880963562408924,0.15,-0.202,-0.044,0.029,0.232,-0.012,0.000,1
1626880963715126016,pose_received,1626880963712352037,0.15,-0.132,-0.044,0.029,0.232,-0.012,0.000,1
1626880963864866048,pose_received,1626880963862596988,0.15,-0.062,-0.044,0.029,0.232,-0.012,0.000,1
1626880964014856960,pose_received,1626880964012516021,0.15,0.008,-0.044,0.029,0.232,-0.012,0.000,1
1626880964164771072,pose_received,1626880964162427902,0.15,0.078,-0.044,0.029,0.232,-0.012,0.000,1
1626880964315008000,pose_received,1626880964312448024,0.15,0.148,-0.044,0.029,0.232,-0.012,0.000,1
1626880964464274944,pose_received,1626880964462456941,0.15,0.218,-0.044,0.029,0.232,-0.012,0.000,1
1626880964614995968,pose_received,1626880964612449884,0.15,0.288,-0.044,0.029,0.232,-0.012,0.000,1
1626880964764694016,pose_received,1626880964762422084,0.15,0.358,-0.044,0.029,0.232,-0.012,0.000,1
1626880964914899968,pose_received,1626880964912473917,0.15,0.428,-0.044,0.029,0.232,-0.012,0.000,1
1626880965064867072,pose_received,1626880965062357902,0.15,0.498,-0.044,0.029,0.232,-0.012,0.000,1
1626880965214670848,pose_received,1626880965212580919,0.15,0.568,-0.044,0.029,0.232,-0.012,0.000,1
1626880965364649984,pose_received,1626880965362433910,0.15,0.638,-0.044,0.029,0.232,-0.012,0.000,1
1626880965514620928,pose_received,1626880965512428998,0.15,0.708,-0.044,0.029,0.232,-0.012,0.000,1
1626880965664307968,pose_received,1626880965662540912,0.15,0.778,-0.044,0.029,0.232,-0.012,0.000,1
1626880965814631936,pose_received,1626880965812407970,0.15,0.848,-0.044,0.029,0.232,-0.012,0.000,1
1626880965965053952,pose_received,1626880965962393999,0.15,0.918,-0.044,0.029,0.232,-0.012,0.000,1
1626880966114726912,pose_received,1626880966112452983,0.15,0.988,-0.044,0.029,0.232,-0.012,0.000,1
1626880966265957120,pose_received,1626880966262413978,0.15,1.058,-0.044,0.029,0.232,-0.012,0.000,1
1626880966416369920,pose_received,1626880966413649082,0.15,1.128,-0.044,0.029,0.232,-0.012,0.000,1
1626880966565288192,pose_received,1626880966562448024,0.15,1.198,-0.044,0.029,0.232,-0.012,0.000,1
1626880966714888192,pose_received,1626880966712344884,0.15,1.268,-0.044,0.029,0.232,-0.012,0.000,1
1626880966865161984,pose_received,1626880966862376928,0.15,1.338,-0.044,0.029,0.232,-0.012,0.000,1
1626880967015218944,pose_received,1626880967012515068,0.15,1.408,-0.044,0.029,0.232,-0.012,0.000,1
1626880967165338880,pose_received,1626880967162507057,0.15,1.478,-0.044,0.029,0.232,-0.012,0.000,1
1626880967316487936,pose_received,1626880967312614917,0.15,1.548,-0.044,0.029,0.232,-0.012,0.000,1
1626880967465327104,pose_received,1626880967462676048,0.15,1.618,-0.044,0.029,0.232,-0.012,0.000,1
1626880967615016960,pose_received,1626880967612469911,0.15,1.688,-0.044,0.029,0.232,-0.012,0.000,1
1626880967770028032,pose_received,1626880967762411117,0.15,1.758,-0.044,0.029,0.232,-0.012,0.000,1
1626880967914891008,pose_received,1626880967912471055,0.15,1.828,-0.044,0.029,0.232,-0.012,0.000,1
1626880968065179136,pose_received,1626880968062320947,0.15,1.898,-0.044,0.029,0.232,-0.012,0.000,1
1626880968514477056,pose_received,1626880968512448072,0.15,1.898,-0.044,0.029,0.302,-0.012,0.000,1
1626880968665484800,pose_received,1626880968662813901,0.15,1.898,-0.044,0.029,0.372,-0.012,0.000,1
1626880969113472000,pose_received,1626880969112026929,0.15,1.898,-0.044,0.029,0.302,-0.012,0.000,1
1626880969263708160,pose_received,1626880969262039899,0.15,1.898,-0.044,0.029,0.232,-0.012,0.000,1
1626880969415537152,pose_received,1626880969412511110,0.15,1.898,-0.044,0.029,0.162,-0.012,0.000,1
1626880969564876032,pose_received,1626880969562325954,0.15,1.898,-0.044,0.029,0.092,-0.012,0.000,1
1626880969714985984,pose_received,1626880969712481975,0.15,1.898,-0.044,0.029,0.022,-0.012,0.000,1
1626880969865530112,pose_received,1626880969862986087,0.15,1.898,-0.044,0.029,-0.048,-0.012,0.000,1
1626880970015741184,pose_received,1626880970012604951,0.15,1.898,-0.044,0.029,-0.118,-0.012,0.000,1
1626880970915062016,pose_received,1626880970912447929,0.15,1.898,-0.044,-0.041,-0.118,-0.012,0.000,1
1626880971066123008,pose_received,1626880971062443017,0.15,1.898,-0.044,-0.111,-0.118,-0.012,0.000,1
1626880971217096960,pose_received,1626880971212508916,0.15,1.898,-0.044,-0.181,-0.118,-0.012,0.000,1
1626880971365185024,pose_received,1626880971362473011,0.15,1.898,-0.044,-0.251,-0.118,-0.012,0.000,1
1626880971516357888,pose_received,1626880971513257980,0.15,1.898,-0.044,-0.321,-0.118,-0.012,0.000,1
1626880971664172800,pose_received,1626880971662461996,0.15,1.968,-0.044,-0.321,-0.118,-0.012,0.000,1
1626880971814518016,pose_received,1626880971812410116,0.15,2.038,-0.044,-0.321,-0.118,-0.012,0.000,1
1626880971964560896,pose_received,1626880971962563991,0.15,2.108,-0.044,-0.321,-0.118,-0.012,0.000,1
1626880972114680064,pose_received,1626880972112648963,0.15,2.178,-0.044,-0.321,-0.118,-0.012,0.000,1
1626880972564503808,pose_received,1626880972562397003,0.15,2.178,-0.044,-0.391,-0.118,-0.012,0.000,1
1626880972714397952,pose_received,1626880972712389945,0.15,2.178,-0.044,-0.461,-0.118,-0.012,0.000,1
1626880972864509952,pose_received,1626880972862462043,0.15,2.178,-0.044,-0.531,-0.118,-0.012,0.000,1
1626880973014444032,pose_received,1626880973012525081,0.15,2.178,-0.044,-0.601,-0.118,-0.012,0.000,1
1626880973164433920,pose_received,1626880973162419080,0.15,2.178,-0.044,-0.671,-0.118,-0.012,0.000,1
1626880973314560000,pose_received,1626880973312454938,0.15,2.178,-0.044,-0.741,-0.118,-0.012,0.000,1
1626880973464474880,pose_received,1626880973462467908,0.15,2.178,-0.114,-0.741,-0.118,-0.012,0.000,1
1626880973615392000,pose_received,1626880973612422943,0.15,2.178,-0.184,-0.741,-0.118,-0.012,0.000,1
1626880973764432896,pose_received,1626880973762418985,0.15,2.178,-0.254,-0.741,-0.118,-0.012,0.000,1
1626880974214523904,pose_received,1626880974212362051,0.15,2.178,-0.324,-0.741,-0.118,-0.012,0.000,1
1626880974364430848,pose_received,1626880974362404108,0.15,2.178,-0.394,-0.741,-0.118,-0.012,0.000,1
1626880974814497024,pose_received,1626880974812284946,0.15,2.248,-0.394,-0.741,-0.118,-0.012,0.000,1
1626880975414552832,pose_received,1626880975412352085,0.15,2.178,-0.394,-0.741,-0.118,-0.012,0.000,1
1626880975564446976,pose_received,1626880975562406063,0.15,2.108,-0.394,-0.741,-0.118,-0.012,0.000,1
1626880976164425984,pose_received,1626880976162348031,0.15,2.108,-0.394,-0.671,-0.118,-0.012,0.000,1
1626880976464404992,pose_received,1626880976462389945,0.15,2.108,-0.464,-0.671,-0.118,-0.012,0.000,1
1626880977364476928,pose_received,1626880977362426996,0.15,2.038,-0.476,-0.671,-0.118,-0.012,0.000,1
1626880977964350976,pose_received,1626880977962270021,0.15,2.038,-0.546,-0.671,-0.118,-0.012,0.000,1
1626880978114415872,pose_received,1626880978112411022,0.15,2.038,-0.616,-0.671,-0.118,-0.012,0.000,1
1626880978714385152,pose_received,1626880978712357997,0.15,2.038,-0.616,-0.601,-0.118,-0.012,0.000,1
1626880982314708992,pose_received,1626880982312465906,0.15,2.038,-0.546,-0.601,-0.118,-0.012,0.000,1
1626880983064389888,pose_received,1626880983062383890,0.15,2.038,-0.616,-0.601,-0.118,-0.012,0.000,1
1626880984264301056,pose_received,1626880984262316942,0.15,2.038,-0.686,-0.601,-0.118,-0.012,0.000,1
1626880986364613888,pose_received,1626880986362571001,0.15,2.038,-0.616,-0.601,-0.118,-0.012,0.000,2
1626880986514439168,pose_received,1626880986512353897,0.15,2.038,-0.546,-0.601,-0.118,-0.012,0.000,2
1626880986665537024,pose_received,1626880986662493944,0.15,2.038,-0.476,-0.601,-0.118,-0.012,0.000,2
1626880986814722048,pose_received,1626880986812412977,0.15,2.038,-0.406,-0.601,-0.118,-0.012,0.000,2
1626880986964684032,pose_received,1626880986962390899,0.15,2.038,-0.336,-0.601,-0.118,-0.012,0.000,2
1626880987114632960,pose_received,1626880987112437963,0.15,2.038,-0.266,-0.601,-0.118,-0.012,0.000,2
1626880987264687104,pose_received,1626880987262424945,0.15,2.038,-0.196,-0.601,-0.118,-0.012,0.000,2
1626880987415694080,pose_received,1626880987412484884,0.15,2.038,-0.126,-0.601,-0.118,-0.012,0.000,2
1626880987564180992,pose_received,1626880987562355041,0.15,2.038,-0.056,-0.601,-0.118,-0.012,0.000,2
1626880987714813952,pose_received,1626880987712447881,0.15,2.038,-0.056,-0.531,-0.118,-0.012,0.000,2
1626880987864631808,pose_received,1626880987862399101,0.15,2.038,-0.056,-0.461,-0.118,-0.012,0.000,2
1626880988014759936,pose_received,1626880988012494087,0.15,2.038,-0.056,-0.391,-0.118,-0.012,0.000,2
1626880988164814848,pose_received,1626880988162429094,0.15,2.038,-0.056,-0.321,-0.118,-0.012,0.000,2
1626880988316542976,pose_received,1626880988312511920,0.15,2.038,-0.056,-0.251,-0.118,-0.012,0.000,2
1626880988464900096,pose_received,1626880988462573051,0.15,2.038,-0.056,-0.181,-0.118,-0.012,0.000,2
1626880988614717952,pose_received,1626880988612576961,0.15,2.038,-0.056,-0.111,-0.118,-0.012,0.000,2
1626880988764747008,pose_received,1626880988762408971,0.15,2.038,-0.056,-0.041,-0.118,-0.012,0.000,2
1626880988914414848,pose_received,1626880988912264108,0.15,2.038,-0.056,0.029,-0.118,-0.012,0.000,2
1626880989064752128,pose_received,1626880989062386989,0.15,2.038,-0.056,0.099,-0.118,-0.012,0.000,2
1626880989214685952,pose_received,1626880989212481021,0.15,1.968,-0.056,0.099,-0.118,-0.012,0.000,2
1626880989364617216,pose_received,1626880989362436056,0.15,1.898,-0.056,0.099,-0.118,-0.012,0.000,2
1626880989513541888,pose_received,1626880989512140989,0.15,1.828,-0.056,0.099,-0.118,-0.012,0.000,2
1626880989664696064,pose_received,1626880989662154912,0.15,1.758,-0.056,0.099,-0.118,-0.012,0.000,2
1626880989817161984,pose_received,1626880989812434911,0.15,1.688,-0.056,0.099,-0.118,-0.012,0.000,2
1626880989970212864,pose_received,1626880989964413881,0.15,1.618,-0.056,0.099,-0.118,-0.012,0.000,2
1626880990115198976,pose_received,1626880990112428903,0.15,1.548,-0.056,0.099,-0.118,-0.012,0.000,2
1626880990265000960,pose_received,1626880990262427091,0.15,1.478,-0.056,0.099,-0.118,-0.012,0.000,2
1626880990414917120,pose_received,1626880990412425994,0.15,1.408,-0.056,0.099,-0.118,-0.012,0.000,2
1626880990564985088,pose_received,1626880990562450885,0.15,1.338,-0.056,0.099,-0.118,-0.012,0.000,2
1626880990714946048,pose_received,1626880990712430000,0.15,1.268,-0.056,0.099,-0.118,-0.012,0.000,2
1626880990864823040,pose_received,1626880990862412929,0.15,1.198,-0.056,0.099,-0.118,-0.012,0.000,2
1626880991014951936,pose_received,1626880991012451887,0.15,1.128,-0.056,0.099,-0.118,-0.012,0.000,2
1626880991164859136,pose_received,1626880991162300109,0.15,1.058,-0.056,0.099,-0.118,-0.012,0.000,2
1626880991316400128,pose_received,1626880991312513113,0.15,0.988,-0.056,0.099,-0.118,-0.012,0.000,2
1626880991464646144,pose_received,1626880991462452888,0.15,0.918,-0.056,0.099,-0.118,-0.012,0.000,2
1626880991614641920,pose_received,1626880991612411975,0.15,0.848,-0.056,0.099,-0.118,-0.012,0.000,2
1626880991764694016,pose_received,1626880991762500047,0.15,0.778,-0.056,0.099,-0.118,-0.012,0.000,2
1626880991914819072,pose_received,1626880991912398099,0.15,0.708,-0.056,0.099,-0.118,-0.012,0.000,2
1626880992065026048,pose_received,1626880992062412023,0.15,0.638,-0.056,0.099,-0.118,-0.012,0.000,2
1626880992215354880,pose_received,1626880992212441921,0.15,0.568,-0.056,0.099,-0.118,-0.012,0.000,2
1626880992364376064,pose_received,1626880992362400054,0.15,0.498,-0.056,0.099,-0.118,-0.012,0.000,2
1626880992514947840,pose_received,1626880992512412071,0.15,0.428,-0.056,0.099,-0.118,-0.012,0.000,2
1626880992663433984,pose_received,1626880992662138938,0.15,0.358,-0.056,0.099,-0.118,-0.012,0.000,2
1626880992813387008,pose_received,1626880992811984062,0.15,0.288,-0.056,0.099,-0.118,-0.012,0.000,2
1626880992963137024,pose_received,1626880992961901903,0.15,0.218,-0.056,0.099,-0.118,-0.012,0.000,2
1626880993114244096,pose_received,1626880993112261056,0.15,0.148,-0.056,0.099,-0.118,-0.012,0.000,2
1626880993264489984,pose_received,1626880993262469053,0.15,0.078,-0.056,0.099,-0.118,-0.012,0.000,2
1626880993415172096,pose_received,1626880993412353038,0.15,0.008,-0.056,0.099,-0.118,-0.012,0.000,2
1626880993564354048,pose_received,1626880993562325954,0.15,-0.062,-0.056,0.099,-0.118,-0.012,0.000,2
1626880993714304000,pose_received,1626880993712404966,0.15,-0.132,-0.056,0.099,-0.118,-0.012,0.000,2
1626880993864249088,pose_received,1626880993862293004,0.15,-0.202,-0.056,0.099,-0.118,-0.012,0.000,2
1626880994014712064,pose_received,1626880994012407064,0.15,-0.272,-0.056,0.099,-0.118,-0.012,0.000,2
1626880994164446208,pose_received,1626880994162456989,0.15,-0.342,-0.056,0.099,-0.118,-0.012,0.000,2
1626880994315042048,pose_received,1626880994312350988,0.15,-0.412,-0.056,0.099,-0.118,-0.012,0.000,2
1626880994465549824,pose_received,1626880994463151931,0.15,-0.482,-0.056,0.099,-0.118,-0.012,0.000,2
1626880994615795968,pose_received,1626880994613320112,0.15,-0.552,-0.056,0.099,-0.118,-0.012,0.000,2
1626880994764401920,pose_received,1626880994762468099,0.15,-0.622,-0.056,0.099,-0.118,-0.012,0.000,2
1626880994914237952,pose_received,1626880994912298917,0.15,-0.692,-0.056,0.099,-0.118,-0.012,0.000,2
1626880995064304128,pose_received,1626880995062328100,0.15,-0.762,-0.056,0.099,-0.118,-0.012,0.000,2
1626880995214456064,pose_received,1626880995212400913,0.15,-0.832,-0.056,0.099,-0.118,-0.012,0.000,2
1626880995364244992,pose_received,1626880995362287998,0.15,-0.902,-0.056,0.099,-0.118,-0.012,0.000,2
1626880995514492160,pose_received,1626880995512423038,0.15,-0.972,-0.056,0.099,-0.118,-0.012,0.000,2
1626880995664290048,pose_received,1626880995662349939,0.15,-1.042,-0.056,0.099,-0.118,-0.012,0.000,2
1626880995820720896,pose_received,1626880995814805030,0.15,-1.112,-0.056,0.099,-0.118,-0.012,0.000,2
1626880995964363008,pose_received,1626880995962346076,0.15,-1.182,-0.056,0.099,-0.118,-0.012,0.000,2
1626880996114479104,pose_received,1626880996112534999,0.15,-1.252,-0.056,0.099,-0.118,-0.012,0.000,2
1626880996264806912,pose_received,1626880996262650966,0.15,-1.322,-0.056,0.099,-0.118,-0.012,0.000,2
1626880996413259008,pose_received,1626880996412112951,0.15,-1.392,-0.056,0.099,-0.118,-0.012,0.000,2
1626880996564364800,pose_received,1626880996562366008,0.15,-1.462,-0.056,0.099,-0.118,-0.012,0.000,2
1626880996714446080,pose_received,1626880996712415933,0.15,-1.532,-0.056,0.099,-0.118,-0.012,0.000,2
1626880996864434944,pose_received,1626880996862426042,0.15,-1.602,-0.056,0.099,-0.118,-0.012,0.000,2
1626880997014626048,pose_received,1626880997012537956,0.15,-1.602,-0.056,0.029,-0.118,-0.012,0.000,2
1626880997164598016,pose_received,1626880997162431001,0.15,-1.602,-0.056,-0.041,-0.118,-0.012,0.000,2
1626880997315005184,pose_received,1626880997312427043,0.15,-1.602,-0.056,-0.111,-0.118,-0.012,0.000,2
1626880997464752896,pose_received,1626880997462413072,0.15,-1.602,-0.056,-0.181,-0.118,-0.012,0.000,2
1626880997616965888,pose_received,1626880997614079952,0.15,-1.602,-0.056,-0.251,-0.118,-0.012,0.000,2
1626880997764801024,pose_received,1626880997762442111,0.15,-1.602,-0.056,-0.321,-0.118,-0.012,0.000,2
1626880997914830080,pose_received,1626880997912519931,0.15,-1.602,-0.056,-0.391,-0.118,-0.012,0.000,2
1626880998064743168,pose_received,1626880998062397003,0.15,-1.602,-0.056,-0.461,-0.118,-0.012,0.000,2
1626880998214865920,pose_received,1626880998212588071,0.15,-1.602,-0.056,-0.531,-0.118,-0.012,0.000,2
1626880998364327936,pose_received,1626880998362503051,0.15,-1.602,-0.056,-0.601,-0.118,-0.012,0.000,2
1626880998515124992,pose_received,1626880998512670040,0.15,-1.602,-0.056,-0.671,-0.118,-0.012,0.000,2
1626880998664715008,pose_received,1626880998662422895,0.15,-1.602,-0.056,-0.741,-0.118,-0.012,0.000,2
1626880998814887936,pose_received,1626880998812477111,0.15,-1.602,-0.056,-0.811,-0.118,-0.012,0.000,2
1626880998964980992,pose_received,1626880998962594032,0.15,-1.602,-0.126,-0.811,-0.118,-0.012,0.000,2
1626880999114757120,pose_received,1626880999112508058,0.15,-1.602,-0.196,-0.811,-0.118,-0.012,0.000,2
1626880999265211136,pose_received,1626880999262460947,0.15,-1.602,-0.266,-0.811,-0.118,-0.012,0.000,2
1626880999414640896,pose_received,1626880999412633895,0.15,-1.602,-0.336,-0.811,-0.118,-0.012,0.000,2
1626880999564872960,pose_received,1626880999562429904,0.15,-1.602,-0.406,-0.811,-0.118,-0.012,0.000,2
1626880999718094080,pose_received,1626880999712532997,0.15,-1.602,-0.406,-0.741,-0.118,-0.012,0.000,2
1626880999863275008,pose_received,1626880999862138032,0.15,-1.602,-0.476,-0.741,-0.118,-0.012,0.000,2
1626881000017432064,pose_received,1626881000012721061,0.15,-1.602,-0.546,-0.741,-0.118,-0.012,0.000,2
1626881000164673024,pose_received,1626881000162307977,0.15,-1.602,-0.616,-0.741,-0.118,-0.012,0.000,2
1626881000314987008,pose_received,1626881000312531948,0.15,-1.602,-0.616,-0.671,-0.118,-0.012,0.000,2
1626881000465107968,pose_received,1626881000462652921,0.15,-1.602,-0.616,-0.601,-0.118,-0.012,0.000,2
1626881000766297088,pose_received,1626881000763047933,0.15,-1.602,-0.616,-0.531,-0.118,-0.012,0.000,2
1626881001215518976,pose_received,1626881001212512969,0.15,-1.602,-0.675,-0.531,-0.118,-0.012,0.000,2
1626881001665175040,pose_received,1626881001662564039,0.15,-1.602,-0.675,-0.461,-0.118,-0.012,0.000,2
1626881002264887040,pose_received,1626881002262398004,0.15,-1.602,-0.745,-0.461,-0.118,-0.012,0.000,2
1626881004514499840,pose_received,1626881004512379884,0.15,-1.602,-0.675,-0.461,-0.118,-0.012,0.000,1
1626881004665425920,pose_received,1626881004663291931,0.15,-1.602,-0.605,-0.461,-0.118,-0.012,0.000,1
1626881004814460160,pose_received,1626881004812424898,0.15,-1.602,-0.535,-0.461,-0.118,-0.012,0.000,1
1626881004964549120,pose_received,1626881004962498903,0.15,-1.602,-0.465,-0.461,-0.118,-0.012,0.000,1
1626881005114438912,pose_received,1626881005112397909,0.15,-1.602,-0.395,-0.461,-0.118,-0.012,0.000,1
1626881005264431104,pose_received,1626881005262419939,0.15,-1.602,-0.325,-0.461,-0.118,-0.012,0.000,1
1626881005422388992,pose_received,1626881005413017034,0.15,-1.602,-0.255,-0.461,-0.118,-0.012,0.000,1
1626881005565819136,pose_received,1626881005563313961,0.15,-1.602,-0.185,-0.461,-0.118,-0.012,0.000,1
1626881005714947072,pose_received,1626881005712372064,0.15,-1.602,-0.115,-0.461,-0.118,-0.012,0.000,1
1626881005865012992,pose_received,1626881005862437963,0.15,-1.602,-0.045,-0.461,-0.118,-0.012,0.000,1
1626881006015027968,pose_received,1626881006012428045,0.15,-1.602,-0.045,-0.391,-0.118,-0.012,0.000,1
1626881006164997120,pose_received,1626881006162429094,0.15,-1.602,-0.045,-0.321,-0.118,-0.012,0.000,1
1626881006319859968,pose_received,1626881006316070079,0.15,-1.602,-0.045,-0.251,-0.118,-0.012,0.000,1
1626881006467124992,pose_received,1626881006464334011,0.15,-1.602,-0.045,-0.181,-0.118,-0.012,0.000,1
1626881006613459200,pose_received,1626881006612231969,0.15,-1.602,-0.045,-0.111,-0.118,-0.012,0.000,1
1626881006763136000,pose_received,1626881006761909961,0.15,-1.602,-0.045,-0.041,-0.118,-0.012,0.000,1
1626881006914308096,pose_received,1626881006912286996,0.15,-1.602,-0.045,0.029,-0.118,-0.012,0.000,1
1626881007064378112,pose_received,1626881007062381982,0.15,-1.602,-0.045,0.099,-0.118,-0.012,0.000,1
1626881007214391040,pose_received,1626881007212357997,0.15,-1.602,-0.045,0.169,-0.118,-0.012,0.000,1
1626881007364288000,pose_received,1626881007362294912,0.15,-1.532,-0.045,0.169,-0.118,-0.012,0.000,1
1626881007514311936,pose_received,1626881007512283086,0.15,-1.462,-0.045,0.169,-0.118,-0.012,0.000,1
1626881007664825856,pose_received,1626881007662250995,0.15,-1.392,-0.045,0.169,-0.118,-0.012,0.000,1
1626881007819415040,pose_received,1626881007812472105,0.15,-1.322,-0.045,0.169,-0.118,-0.012,0.000,1
1626881007965255936,pose_received,1626881007962853908,0.15,-1.252,-0.045,0.169,-0.118,-0.012,0.000,1
1626881008114883072,pose_received,1626881008112435102,0.15,-1.182,-0.045,0.169,-0.118,-0.012,0.000,1
1626881008264851200,pose_received,1626881008262427091,0.15,-1.112,-0.045,0.169,-0.118,-0.012,0.000,1
1626881008415273984,pose_received,1626881008412792921,0.15,-1.042,-0.045,0.169,-0.118,-0.012,0.000,1
1626881008564963072,pose_received,1626881008562482118,0.15,-0.972,-0.045,0.169,-0.118,-0.012,0.000,1
1626881008714923008,pose_received,1626881008712403059,0.15,-0.902,-0.045,0.169,-0.118,-0.012,0.000,1
1626881008864822016,pose_received,1626881008862413883,0.15,-0.832,-0.045,0.169,-0.118,-0.012,0.000,1
1626881009014887936,pose_received,1626881009012419939,0.15,-0.762,-0.045,0.169,-0.118,-0.012,0.000,1
1626881009164672000,pose_received,1626881009162300109,0.15,-0.692,-0.045,0.169,-0.118,-0.012,0.000,1
1626881009316934144,pose_received,1626881009312483072,0.15,-0.622,-0.045,0.169,-0.118,-0.012,0.000,1
1626881009464916992,pose_received,1626881009462457895,0.15,-0.552,-0.045,0.169,-0.118,-0.012,0.000,1
1626881009615849984,pose_received,1626881009612418889,0.15,-0.482,-0.045,0.169,-0.118,-0.012,0.000,1
1626881009765458944,pose_received,1626881009762913942,0.15,-0.412,-0.045,0.169,-0.118,-0.012,0.000,1
1626881009914972928,pose_received,1626881009912396907,0.15,-0.342,-0.045,0.169,-0.118,-0.012,0.000,1
1626881010063564032,pose_received,1626881010062192916,0.15,-0.272,-0.045,0.169,-0.118,-0.012,0.000,1
1626881010214360832,pose_received,1626881010212033033,0.15,-0.202,-0.045,0.169,-0.118,-0.012,0.000,1
1626881010364965888,pose_received,1626881010362462043,0.15,-0.132,-0.045,0.169,-0.118,-0.012,0.000,1
1626881010514996992,pose_received,1626881010512438058,0.15,-0.062,-0.045,0.169,-0.118,-0.012,0.000,1
1626881010665160960,pose_received,1626881010662415027,0.15,0.008,-0.045,0.169,-0.118,-0.012,0.000,1
1626881010814953984,pose_received,1626881010812417984,0.15,0.078,-0.045,0.169,-0.118,-0.012,0.000,1
1626881010964945920,pose_received,1626881010962512016,0.15,0.148,-0.045,0.169,-0.118,-0.012,0.000,1
1626881011115389952,pose_received,1626881011112358093,0.15,0.218,-0.045,0.169,-0.118,-0.012,0.000,1
1626881011265018880,pose_received,1626881011262473106,0.15,0.288,-0.045,0.169,-0.118,-0.012,0.000,1
1626881011414989824,pose_received,1626881011412425041,0.15,0.358,-0.045,0.169,-0.118,-0.012,0.000,1
1626881011564898048,pose_received,1626881011562422037,0.15,0.428,-0.045,0.169,-0.118,-0.012,0.000,1
1626881011714930176,pose_received,1626881011712425947,0.15,0.498,-0.045,0.169,-0.118,-0.012,0.000,1
1626881011864849920,pose_received,1626881011862426996,0.15,0.568,-0.045,0.169,-0.118,-0.012,0.000,1
1626881012014936832,pose_received,1626881012012350082,0.15,0.638,-0.045,0.169,-0.118,-0.012,0.000,1
1626881012164828160,pose_received,1626881012162440061,0.15,0.708,-0.045,0.169,-0.118,-0.012,0.000,1
1626881012315248896,pose_received,1626881012312459945,0.15,0.778,-0.045,0.169,-0.118,-0.012,0.000,1
1626881012464811008,pose_received,1626881012462379932,0.15,0.848,-0.045,0.169,-0.118,-0.012,0.000,1
1626881012614938112,pose_received,1626881012612417936,0.15,0.918,-0.045,0.169,-0.118,-0.012,0.000,1
1626881012764847872,pose_received,1626881012762404918,0.15,0.988,-0.045,0.169,-0.118,-0.012,0.000,1
1626881012914958848,pose_received,1626881012912398099,0.15,1.058,-0.045,0.169,-0.118,-0.012,0.000,1
1626881013064888832,pose_received,1626881013062355041,0.15,1.128,-0.045,0.169,-0.118,-0.012,0.000,1
1626881013214693120,pose_received,1626881013212472915,0.15,1.198,-0.045,0.169,-0.118,-0.012,0.000,1
1626881013364919808,pose_received,1626881013362416982,0.15,1.268,-0.045,0.169,-0.118,-0.012,0.000,1
1626881013513350912,pose_received,1626881013512129068,0.15,1.338,-0.045,0.169,-0.118,-0.012,0.000,1
1626881013663261952,pose_received,1626881013662015914,0.15,1.408,-0.045,0.169,-0.118,-0.012,0.000,1
1626881013813726976,pose_received,1626881013812012910,0.15,1.478,-0.045,0.169,-0.118,-0.012,0.000,1
1626881013963761152,pose_received,1626881013962039947,0.15,1.548,-0.045,0.169,-0.118,-0.012,0.000,1
1626881014113615104,pose_received,1626881014112411975,0.15,1.618,-0.045,0.099,-0.118,-0.012,0.000,1
1626881014263403008,pose_received,1626881014262048959,0.15,1.618,-0.045,0.029,-0.118,-0.012,0.000,1
1626881014413517824,pose_received,1626881014412020921,0.15,1.618,-0.045,-0.041,-0.118,-0.012,0.000,1
1626881014563489024,pose_received,1626881014561944007,0.15,1.618,-0.045,-0.111,-0.118,-0.012,0.000,1
1626881014713715200,pose_received,1626881014712024927,0.15,1.618,-0.045,-0.181,-0.118,-0.012,0.000,1
1626881014863248128,pose_received,1626881014861952066,0.15,1.618,-0.045,-0.251,-0.118,-0.012,0.000,1
1626881015014596096,pose_received,1626881015012386083,0.15,1.618,-0.045,-0.321,-0.118,-0.012,0.000,1
1626881015164529152,pose_received,1626881015162379980,0.15,1.688,-0.045,-0.321,-0.118,-0.012,0.000,1
1626881015318299904,pose_received,1626881015315121889,0.15,1.758,-0.045,-0.321,-0.118,-0.012,0.000,1
1626881015614761216,pose_received,1626881015612395048,0.15,1.758,-0.045,-0.391,-0.118,-0.012,0.000,1
1626881015764265984,pose_received,1626881015762284040,0.15,1.758,-0.045,-0.461,-0.118,-0.012,0.000,1
1626881015915975936,pose_received,1626881015913630962,0.15,1.758,-0.045,-0.531,-0.118,-0.012,0.000,1
1626881016064758016,pose_received,1626881016062397003,0.15,1.758,-0.045,-0.601,-0.118,-0.012,0.000,1
1626881016214899968,pose_received,1626881016212471961,0.15,1.758,-0.045,-0.671,-0.118,-0.012,0.000,1
1626881016364900096,pose_received,1626881016362540006,0.15,1.758,-0.045,-0.741,-0.118,-0.012,0.000,1
1626881016514856192,pose_received,1626881016512375116,0.15,1.758,-0.045,-0.811,-0.118,-0.012,0.000,1
1626881016664832000,pose_received,1626881016662465095,0.15,1.758,-0.115,-0.811,-0.118,-0.012,0.000,1
1626881016814477824,pose_received,1626881016812381029,0.15,1.758,-0.185,-0.811,-0.118,-0.012,0.000,1
1626881016964715008,pose_received,1626881016962446928,0.15,1.758,-0.255,-0.811,-0.118,-0.012,0.000,1
1626881017414562816,pose_received,1626881017412417888,0.15,1.758,-0.325,-0.811,-0.118,-0.012,0.000,1
1626881017715099136,pose_received,1626881017712266921,0.15,1.758,-0.325,-0.741,-0.118,-0.012,0.000,1
1626881018015927040,pose_received,1626881018012902021,0.15,1.758,-0.395,-0.741,-0.118,-0.012,0.000,1
1626881018463342848,pose_received,1626881018461949110,0.15,1.758,-0.465,-0.741,-0.118,-0.012,0.000,1
1626881019064975872,pose_received,1626881019062381029,0.15,1.758,-0.535,-0.741,-0.118,-0.012,0.000,1
1626881019515207936,pose_received,1626881019512391090,0.15,1.758,-0.535,-0.671,-0.118,-0.012,0.000,1
1626881019814681088,pose_received,1626881019812387943,0.15,1.758,-0.605,-0.671,-0.118,-0.012,0.000,1
1626881021021980928,pose_received,1626881021018233060,0.15,1.758,-0.675,-0.671,-0.118,-0.012,0.000,1
1626881025963975936,pose_received,1626881025962253093,0.15,1.758,-0.605,-0.671,-0.118,-0.012,0.000,2
1626881026114893056,pose_received,1626881026112428903,0.15,1.758,-0.535,-0.671,-0.118,-0.012,0.000,2
1626881026264691200,pose_received,1626881026262355089,0.15,1.758,-0.465,-0.671,-0.118,-0.012,0.000,2
1626881026418145024,pose_received,1626881026412424087,0.15,1.758,-0.395,-0.671,-0.118,-0.012,0.000,2
1626881026564752128,pose_received,1626881026562464952,0.15,1.758,-0.325,-0.671,-0.118,-0.012,0.000,2
1626881026714614016,pose_received,1626881026712412118,0.15,1.758,-0.255,-0.671,-0.118,-0.012,0.000,2
1626881026865315072,pose_received,1626881026862421035,0.15,1.758,-0.185,-0.671,-0.118,-0.012,0.000,2
1626881027014742016,pose_received,1626881027012406110,0.15,1.758,-0.115,-0.671,-0.118,-0.012,0.000,2
1626881027165231104,pose_received,1626881027162369012,0.15,1.758,-0.045,-0.601,-0.118,-0.012,0.000,2
1626881027315234816,pose_received,1626881027312454938,0.15,1.758,-0.045,-0.531,-0.118,-0.012,0.000,2
1626881027464540928,pose_received,1626881027462462902,0.15,1.758,-0.045,-0.461,-0.118,-0.012,0.000,2
1626881027614383104,pose_received,1626881027612361907,0.15,1.758,-0.045,-0.391,-0.118,-0.012,0.000,2
1626881027764620032,pose_received,1626881027762384891,0.15,1.758,-0.045,-0.321,-0.118,-0.012,0.000,2
1626881027914444800,pose_received,1626881027912271976,0.15,1.758,-0.045,-0.251,-0.118,-0.012,0.000,2
1626881028064889856,pose_received,1626881028062366008,0.15,1.758,-0.045,-0.181,-0.118,-0.012,0.000,2
1626881028214832896,pose_received,1626881028212404966,0.15,1.758,-0.045,-0.111,-0.118,-0.012,0.000,2
1626881028364196096,pose_received,1626881028362390041,0.15,1.758,-0.045,-0.041,-0.118,-0.012,0.000,2
1626881028513443072,pose_received,1626881028512170076,0.15,1.758,-0.045,0.029,-0.118,-0.012,0.000,2
1626881028663357952,pose_received,1626881028661993026,0.15,1.758,-0.045,0.099,-0.118,-0.012,0.000,2
1626881028813394176,pose_received,1626881028812017917,0.15,1.688,-0.045,0.099,-0.118,-0.012,0.000,2
1626881028963248128,pose_received,1626881028962024927,0.15,1.618,-0.045,0.099,-0.118,-0.012,0.000,2
1626881029114016000,pose_received,1626881029112262010,0.15,1.548,-0.045,0.099,-0.118,-0.012,0.000,2
1626881029265430016,pose_received,1626881029262321949,0.15,1.478,-0.045,0.099,-0.118,-0.012,0.000,2
1626881029414774784,pose_received,1626881029412447929,0.15,1.408,-0.045,0.099,-0.118,-0.012,0.000,2
1626881029564776960,pose_received,1626881029562386035,0.15,1.338,-0.045,0.099,-0.118,-0.012,0.000,2
1626881029714065152,pose_received,1626881029712328910,0.15,1.268,-0.045,0.099,-0.118,-0.012,0.000,2
1626881029864160000,pose_received,1626881029862411975,0.15,1.198,-0.045,0.099,-0.118,-0.012,0.000,2
1626881030014887168,pose_received,1626881030012439966,0.15,1.128,-0.045,0.099,-0.118,-0.012,0.000,2
1626881030165285120,pose_received,1626881030162399053,0.15,1.058,-0.045,0.099,-0.118,-0.012,0.000,2
1626881030315561984,pose_received,1626881030312439918,0.15,0.988,-0.045,0.099,-0.118,-0.012,0.000,2
1626881030464709888,pose_received,1626881030462410926,0.15,0.918,-0.045,0.099,-0.118,-0.012,0.000,2
1626881030617876992,pose_received,1626881030612385988,0.15,0.848,-0.045,0.099,-0.118,-0.012,0.000,2
1626881030766115072,pose_received,1626881030763143062,0.15,0.778,-0.045,0.099,-0.118,-0.012,0.000,2
1626881030914551040,pose_received,1626881030912369966,0.15,0.708,-0.045,0.099,-0.118,-0.012,0.000,2
1626881031064961024,pose_received,1626881031062793970,0.15,0.638,-0.045,0.099,-0.118,-0.012,0.000,2
1626881031215053056,pose_received,1626881031212291955,0.15,0.568,-0.045,0.099,-0.118,-0.012,0.000,2
